X:1
T:Symphony No. 2 in D Major
T:Symphony No. 2 in D Major
T:Ludwing van Beethoven
T:Arr. for piano by Franz Liszt
T:1st Movement
C:Ludwing van Beethoven
Z:Arr. for piano by Franz Liszt
%%score { ( 1 3 6 ) | ( 2 4 5 ) }
L:1/8
Q:1/4=42
M:3/4
K:D
V:1 treble nm="Piano" snm="Pno."
V:3 treble 
V:6 treble 
V:2 bass 
V:4 bass 
V:5 bass 
V:1
"^Adagio molto"!ff! [Dd]/4 |[Q:1/4=21] !fermata![Dd]3[Q:1/4=42]!p! [Af][Ge][Fd] | d2 c2 ^d2 | %3
 [Be]3 [Bf][Bg][Bb] | [Ad]2 [Ac] .[ec'e']/>.[dbd']/ .[cac']/>.[Bgb]/ .[Afa]/>!ff!.[Geg]/ | %5
[Q:1/4=32]"^ten." d3[Q:1/4=42]!p! [Af][Ge][Fd] |"_cresc." [=Fd]2 [Ec]2 T^d2 | %7
!f!{/^cd} Te7/4{/^de}f/4 Tg3/4{/fg}a/4 b-!mp! (3b/g/e/ (3g/e/c/ |!p! d .F.F"_cresc.".F.F.F | %9
 z7/4!p! [ef]/4 [ef]2 [df] [DF] | z7/4!p! [=fg]/4 [fg]2 [eg] [E^G] | %11
 z7/4!p! [ga]/4"_cresc." [ga]2 [=fa]!ff![A_efa] | %12
!f! [_Bd=f_b-]2 b/!p!a/4g/4=f/4_e/4d/4=c/4 B/4A/4G/4=F/4_E/4D/4=C/4_B,/4 | %13
!8va(! [_e-a_e'-]2 [ee']/d'/4=c'/4_b/4a/4g/4=f/4 e/4d'/4c'/4b/4a/4[gg']/4[f=f']/4[ee']/4 | %14
!f! [d_bd']!8va)! [_Bb]-!p! [Bb]/4[=F=f]/4[Gg]/4[Aa]/4[Bb]/4[=c=c']/4[dd']/4[cc']/4 [Bb]/4[Aa]/4[Gg]/4[Ff]/4[_E_e]/4[Dd]/4[=Cc]/4[_B,B]/4 | %15
!8va(! [_e_e']2- [ee']/4!p![dd']/4[=c=c']/4[dd']/4[ee']/4[=f=f']/4[gg']/4[ff']/4!8va)! [_ee']/4[dd']/4[=cc']/4[_B_b]/4[Aa]/4[Gg]/4[=F=f]/4[_Ee]/4 | %16
 d"_cresc." z =f3 ^f | %17
 (3[GBdg]/!p! [B,D=FG]/[B,DFG]/ (3[B,DFG]/[B,DFG]/[B,DFG]/ G-G/4!mp!A/8B/8c/8d/8e/8^f/8 g x | %18
 (3[EG_Be]/!p! [_B,=CEG]/[B,CEG]/ (3[B,CEG]/[B,CEG]/[B,CEG]/ =c-!mp!c/4d/8e/8=f/8g/8a/8=b/8 =c' x | %19
 (3[A,=C_EA]/!p! [CEA]/[CEA]/ (3[CEA]/[CEA]/[CEA]/ =F-F/4!mp!G/8A/8_B/8=c/8d/8=e/8 =f x | %20
 (3[=CDAd]/!p! [DA=c]/[DAc]/ (3[DAc]/[DAc]/[DAc]/ d-d/4!mp!e/8f/8g/8a/8=b/8^c'/8 d' x | %21
 (3[_B,D_B]/!p! [B,DG]/[B,DG]/ (3[B,DG]/[B,DG]/[B,DG]/ G-!mp!G/4A/8B/8=c/8d/8e/8f/8 g x | %22
 (3[_B,EG^c]/!p! [A,CEG]/"_cresc."[A,CEG]/ (3[A,CEG]/[A,CEG]/[A,CEG]/ (3[A,CEG]/[A,CEG]/[A,CEG]/ [ce]=fe | %23
 [d=fd']7/4[dd']/4 !>![Aa]7/4[Aa]/4 .[=FAf].[DAd] | [A,A] z!p! A,2 =C2 | %25
!p! (3z/ .[Aa]/.[Bb]/ (3.[=c=c']/.[Bb]/.[Aa]/ (3.[Gg]/.[Bb]/.[Aa]/ (3.[Gg]/.[Aa]/.[Ff]/ (3.[Ee]/.[Ff]/.[^D^d]/ (3.[Ee]/.[Ff]/.[Gg]/ | %26
 (3z/ .[Gg]/.[Aa]/ (3.[_B_b]/.[Aa]/.[Gg]/!p! [Ff] [Aa]2 [=c=c'] |!p! z [^df][eg]!p! x z2 | %28
!p! z [ce][df]!p! x z2 | %29
 (3z/ [Bd=f^g]/!p![Bdfg]/ (3[Bdfg]/[Bdfg]/[Bdfg]/ (3[Bdfg]/[Bdfg]/[Bdfg]/(3[Bdfg]/[Bdfg]/[Bdfg]/!p! [Bfg]/ x/ x | %30
 (3z/ [_Bceg]/!p![Bceg]/ (3[Bceg]/[Bceg]/[Bceg]/ (3[Bceg]/[Bceg]/[Bceg]/(3[Bceg]/[Bceg]/[Bceg]/!p! [Aeg]/ x/ x | %31
 (3z/ [Adf]/!p![Adf]/ (3[Adf]/[Adf]/[Adf]/ (3[Ad=f]/[Adf]/[Adf]/(3[Adf]/[Adf]/[Adf]/!p! [df]/ x/ x | %32
 (3z/ [Ade]/!p![Ade]/ (3[Ade]/[Ade]/[Ade]/ (3[Ade]/[Ade]/[Ade]/(3[Ade]/[Ade]/[Ade]/!p! [de]/ x/ x | %33
 [Aca]4- [Aca]3/4g/8f/8e/8d/8c/8B/8A/8G/8F/8E/8 || %34
[M:4/4]!f![Q:1/4=160]"^Allegro con brio" D!p! DDD DDDD |: DDDD DDDD | DDDD DDDD | %37
!p! f/"_cresc."e/d/e/ f/g/a/g/ f/e/d/c/ B/A/G/!mf!F/ | %38
!p! [B,DE][B,DE][B,DE][B,DE] [B,DE][B,DE][B,DE][B,DE] | %39
 [B,DE][B,DE][B,DE][B,DE] [B,DE][B,DE][B,DE][B,DE] | %40
 [B,DE][B,DE][B,DE][B,DE] [B,DE][B,DE][B,DE][B,DE] |!mp! [Ee]6 [^E^e]2 | [Ff]2 x2 x4 | %43
!mp! [Ff]6 [Ff]2 |"_cresc." [Aa]2 [Gg]4 [Ff]2- | [Ff]2 [Ee]4 [^D^d]2- | [Dd]2 [Ee]2 [Gg]2 [Cc]2 | %47
!f! [Dd]4 x2!f! d/c/d/e/ | [Fdf]6!f! f/e/f/g/ | .[Ada]2 a/^g/a/b/ [=c=c'-]4 | %50
!f! .[=cdc']2 .[Ada]2 .[Fdf]2 .[=Cc]2 | .[B,B]2 G,/B,/D/F/ G/B,/D/F/ G/B/d/f/ | %52
 !^![GAeg]/a/b/a/ g/f/e/d/ !^![EAc]/d/e/d/ c/B/A/G/ | .[A,DF]2 a/^g/a/b/ [=c=c'-]4 | %54
!f! .[=cdc']2 .[Ada]2 .[Fdf]2 .[=Cc]2 | [_B,_B]2 G,/B,/D/F/ G/B,/D/F/ G/B/d/f/ | %56
 !^![GAeg]/a/_b/a/ g/=f/e/d/ !^![EAc]/d/e/d/ c/_B/A/G/ | [A,D=F] z z3/2 [d=fd']/ [dfd']4 | %58
 z!mf! [D=Fd][DFd][DFd] [DFd][DFd][DFd][DFd] | [D=Fd] z z3/2 [d=fd']/ [dfd']4 | %60
 z!mf! [D=Fd][DFd][DFd] [DFd][DFd][DFd][DFd] |!ff! [DE-de-]4 [Ee].[=F=f].[Ee].[Dd] | %62
 .[=C=c].[B,B].[A,A].[^G,^G] .[A,A].[Cc].[B,B].[A,A] | .[^G,^G] .^D.E.D .E.F.=G.^G | %64
 .[A,A].[^G,^G].[A,A].[B,B] .[=C=c].[^C^c].[Dd].[^D^d] | [Ee]2 [ee']2- [ee'].[=f=f'].[ee'].[dd'] | %66
 [=c=c'][Bb][Aa][^G^g] [Aa][cc'][Bb][Aa] | [^G^g][^D^d][Ee][Dd] [Ee][Ff][=G=g][^G^g] | %68
 [Aa][^Ge^g][Aea][Beb] [=ce=c'][^ca^c'][dad'][^da^d'] | [e^ge']3!ff! [=FA^d] [E^Ge]3!ff! ^D | %70
 E^DED EDED | E2 [Ee]4!ff! .[^D^d]2 | .[=D=d]2 .[Cc]2 .[B,B]2 .[Ee]2 | [A,C]4 [CE]7/2 [EA]/ | %74
 [Ac]6 [CAc]>[DBd] | .[Ece]2 .[Ece]2 .[Ece]2 .[Fdf]2 | [Ece]4 [CAc]2 z2 | %77
!ff! [CFAc]4 [FAcf]7/2 [Aa]/ | [cfac']6 [Aa]>[Ff] | [Be^gb]2 [^Gg]>[Ee] [A^dfa]2 [Ff]>[^Dd] | %80
 [E^GBe]2!p! E/F/G/A/ B/c/d/c/ e/d/c/B/ | A2 a/^g/a/g/ a/g/a/g/ a/g/a/g/ | %82
 a/^g/a/g/ a/g/a/g/ a/g/a/g/ c'>d' | e'2 [c'e']2 [c'e']2 [d'f']2 | [c'e']4 .c'!f! .C.F.A | %85
!ff! .[CFc] .C.F.A .[CFc] .[Cc].[Ff].[Aa] | [cfac']6 [Aa]>[Ff]!ff! | %87
 .[Bb]!ff!([Bb][^G^g][Ee]) .[Aa]!ff!([Aa][Ff])[^D^d] |!ff! [E^Ge] !>![Ee]2 [Ee]2 [Ee]2 [Ee]- | %89
 [Ee] !>![Ee]2 [Ee]2 [Ee]2 [Ee] |!8va(! [ee']4- [ee'][ee'][dd'][cc'] | %91
 [dd']4 [dd'][dd'][cc'][^B^b]!8va)! | .[cec']!ff!([cc'][Bb][^A^a]) .[Beb]!ff!([Bb][=A=a][^G^g]) | %93
 .[Aea]!ff!([ee'][dd'][cc']) .[ded']!ff!([dd'][cc'][^B^b]) | %94
 .[cec']!ff!([cc'][Bb][Aa]) .[Bcb]!ff!([Bb][Aa][^G^g]) | %95
 .[Aca]!ff!([Aa][Gg])[Ff] .[GAg]!ff!([Gg][Ff][^E^e]) | %96
 .[Ff]2 z3/2 [fd'f']/[Q:1/4=92]"^ten." !^![fd'f']4 | %97
[Q:1/4=160] .[DFBd]2 z3/2 [fd'f']/[Q:1/4=92]"^ten." !^![fd'f']4 | %98
[Q:1/4=160] z2 .[ebd'e']2 z2 .[ec'e']2 | z2 .[dfbd']2 z2 .[Bd^gb]2 | %100
 z2 z3/2!ff! [dfad']/[Q:1/4=92]"^ten." [dfad']4 | %101
[Q:1/4=160] z2 z3/2 [=fbd'=f']/[Q:1/4=92]"^ten." [fbd'f']4 |[Q:1/4=160] z4 z2!pp! B,/^A,/B,/=C/ | %103
 .D2 z2 z2 =C/B,/C/D/ | .E2 z2 z2 D/C/D/E/ |"_cresc." .=F2 E/D/E/F/ .G2 F/E/F/G/ | %106
 .A2 ^G/F/G/A/ .[B,B]2 A/G/A/B/ | .[=C=c]2 A/^G/A/B/ .[Cc]2 A/G/A/B/ | !>![=C=c]8 | !>!^D8 | %110
!ff! EA[Cc][Ee] [Aa][cc'][ee'][ee'] | !^![de^gbe']4 Tg3 f/g/ | [cea]2 z2 x4 | %113
 [Ac]2 c/B/c/d/!mp! .[Ae]2 e/=f/g/e/ |!ff! d'4 z2!ff! d'2 | [Aa]2 [A=f]2 [Ae]2 [Ad]2 | %116
 A6!mp! A/^G/A/B/ | .[Ac]2 c/B/c/d/!mp! .[Ae]2 e/=f/g/e/ |!ff! d'4 z2!ff! d'2 | %119
 [Aa]2 [A=f]2 [Ae]2 [Ad]2 | [CE]2 D2 [CE]2 [D=F^G]2 | [CE]2 D2 [CE]2 [D=F^GB]2 | %122
 [CE]2 D2 [CE]2 [D=F^G]2 | [CE]2 D2 [CE]2 [D=F^G]2 | [CEA]2 [D=F^GB]2 [CEA]2 [DFGB]2 | %125
 [CEA]2 [D=F^GB]2 [CEA]2 [DFGB]2 | [A,CEA] e/e'/ c'/e/c/e/ e/c/c'/c/ a/c/e/c/ | %127
 c/A/a/A/ e/A/c/A/ A/E/e/E/ c/E/A/E/ | E/C/c/C/ A/C/E/C/ A, z [CEA]2 | !^![CEAc]4 [EAce]4 | %130
 .[Acea]2 z2!f! [ceac']2 z2 |!f! .A,2 z2!f! .[eac'e']2 z2 |1!p! [ee']6 [dd']2 | %133
 [cc']2 [Bb]2 [Aa]2 [Geg]2 |!p! [Fdf] DDD DDDD :|2!p! [ee']6 [dd']2 | [cc']2 [Bb]2 [Aa]2 [Geg]2 || %137
 x2 z2!f! .[ceac']2 z2 | x2 z2!f! .[eac'e']2 z2 |!p! [ee']6 [dd']2 | [cc']2 [_B_b]2 [Aa]2 [Geg]2 | %141
 [=Fd=f]!p! DDD DDDD | DDDD DDDD | DDDD DDDD |!p! !//-!d'2 c'2 !//-!d'2 c'2 | %145
 .d'!p! [_B,D_E]"_cresc."[B,DE][B,DE] [B,DE][B,DE][B,DE][B,DE] | !//-!d'2 c'2 !//-!d'2 c'2 | %147
 d' [=CDF][CDF][CDF] [CDF][CDF][CDF][CDF] | d'/^c'/d'/c'/ d'/c'/d'/c'/ d'/c'/d'/c'/ d'/c'/d'/=c'/ | %149
!f! _b=c' .[dd'].[=cc'] .[_Bb].[cc'].[Aa].[Bb] | [Gg][Aa][=F=f][Gg] [_E_e][Ff][Dd][Ee] | %151
 [=C=c]4!f! ._E.=F c/B/c/d/ | .[_E_e]2 .[=E=e]2 .[=F=f]2 .[Gg]2 | %153
 ([Aa]!f![_B_b]).[=c=c'].[Bb] .[Aa].[Bb].[Gg].[Aa] | %154
 .[=F=f].[Gg].[_E_e].[Ff] .[Dd].[Ee].[=C=c].[Dd] | [_B,_B]4!f! .D._E B/A/B/=c/ | %156
 .[Dd]2 .[Dd]2 [Ee]2 [=F=f]2 | ([Gg]!f![Aa]).[=F=f].[Gg] .[Ee].f.d.e | %158
 ^c2 z2 .[Aa].[_B_b].[Gg].[Aa]!f! | [=F=f]!f![Gg].[Ee].[Ff] .[Dd].e.=c.d | %160
 B2 z2 [Gg][Aa][=F=f][Gg]!f! |!ff! [Ee]2!8va(! e'/^d'/e'/f'/ [gg']2!8va)! E/^D/E/F/ | %162
 .[=CEG]2 E/^D/E/F/ .[CEG]2 E/D/E/F/ | z2!ff!!8va(! e'/^d'/e'/f'/ .[gg']2!8va)! E/^D/E/F/ | %164
 .[B,EG]2 E/^D/E/F/ .[B,EG]2 E/D/E/F/ | z2!ff!!8va(! e'/^d'/e'/f'/ .[gg']2!8va)! E/^D/E/F/ | %166
 z2!ff!!8va(! e'/^d'/e'/f'/ .[gg']2!8va)! =D/C/D/E/ | %167
 z2!ff!!8va(! d'/c'/d'/e'/ .[=f=f']2!8va)! D/C/D/E/ | %168
 z2!ff!!8va(! d'/c'/d'/e'/ .[=f=f']2!8va)! D/^C/D/E/ | %169
 .[B,=F]2!mf! [=fd'=f'][fd'f'] [fd'f'][fd'f'][fd'f'][fd'f'] | %170
 [ed'e'][ed'e'][ed'e'][ed'e'] [e=c'e'][ec'e'][ec'e'][ec'e'] | %171
 [d=c'd'][dc'd'][dc'd'][dc'd'] [dbd'][dbd'][dbd'][dbd'] | %172
 [=cb=c'][cbc'][cbc'][cbc'] [cac'][cac'][cac'][cac'] |!ff! [=ca=c']4 x2!ff! d/^c/d/e/ | %174
 .[Ff]2 f/e/f/g/ .[Aa]2 a/^g/a/b/ | [=c=c']4 x2!ff! =c/d/c/B/ | .[Aa]2 A/B/A/G/ .[Ff]2 F/G/F/E/ | %177
 [=cd]4 x2!ff! d/^c/d/e/ | .[Ff]2 f/e/f/g/ .[Aa]2 a/^g/a/b/ | [=c=c']4 x2!ff! c/d/c/B/ | %180
 .[Aa]2 A/B/A/G/ .[Ff]2 F/G/F/E/ | z2!p! a/^g/a/b/ =c'4- |!p! c'2 a/^g/a/b/ =c'4- | %183
 c'2!pp! =c/B/c/d/ .e2 A/^G/A/B/ | .=c2 z2 z4 |!p! B,4 [B,D]7/2 [DG]/ | [GB]6 [GB]>[A=c] | %187
 .[Bd]2 .[DBd]2 .[DBd]2 .[E=ce]2 | [DBd]4 [DGB]!p! z [gb]>[a=c'] | %189
 .[bd']2 .[gbd']2 .[gbd']2 .[f=c'_e']2 | .[gbd']2 x2 x4 | %191
!p! !arpeggio!.[Bd']2 .[gbd']2 .[gbd']2 .[g^c'=e']2 | .[d'=f']2 x2 x4 | %193
!p! !arpeggio!.[^ce']2 .[ac'e']2 .[ac'e']2 .[^gd'=f']2 | .[ac'e']2 x2 x4 | %195
!p! !arpeggio!.[ce']2 .[ac'e']2 .[ac'e']2 .[^d'f']2 | .[e'g']2 x2 x4 | %197
!p! !arpeggio!.[^df']2 .[b^d'f']2 .[bd'f']2 .[^ae'g']2 | [b^d'f']2 x2 x4 | %199
!f! !//-![Af]2 a2 !//-![Af]2 a2 |!ff! !//-![fa]2 f'2 !//-![fa]2 f'2 | [^e^g^e']2 [cc']4!ff! c>c | %202
 .[Ff]2 .[Ff]>.[Ff] .[Aa]2 .[Aa]>.[Aa] | [cc']6!ff! .[cc']>.[cc'] | %204
 .[Aa]2 .[Aa]>.[Aa] .[Ff]2 .[Ff]>.[Ff] | !^!c2 [cc']4!ff! .c>.c | %206
 .[Ff]2 .[Ff]>.[Ff] .[Aa]2 .[Aa]>.[Aa] | [cc']6!ff! .[cc']>.[cc'] | %208
 .[Aa]2 .[Aa]>.[Aa] .[Ff]2 .[Ff]>.[Ff] | %209
 c2 z3/2 [cc']/"^ten." [cc']7/2!ff! [^G,C^E]/[Q:1/4=92][Q:1/4=160] | %210
 .[A,CF] z z3/2 [cc']/"^ten." [cc']7/2!ff! [A,CF]/[Q:1/4=92][Q:1/4=160] | %211
 [^G,C^E] z z3/2 [cc']/"^ten." [cc']7/2!ff! [G,CE]/[Q:1/4=92][Q:1/4=160] | %212
 .[A,CF] z z3/2 [cc']/"^ten." [cc']7/2!ff! [A,CF]/[Q:1/4=92][Q:1/4=160] | %213
 [^G,C^E] z z2 z2 z3/2 [cc']/ | [cc']2 z3/2 [cc']/ [cc']2 z3/2 C/ |!p! C2 z2 z4 | z8 |!p! A,8 | %218
 [GAcea-]4 ag/f/ e/4d/4c/4B/4A/4G/4F/4E/4 |!p! DDDD DDDD | DDDD DDDD | DDDD DDDD | %222
!p! f/"_cresc."e/d/e/ f/g/a/g/ f/e/d/c/ B/A/G/!mf!F/ | %223
!p! [B,DE][B,DE][B,DE][B,DE] [B,DE][B,DE][B,DE][B,DE] | %224
 [B,DE][B,DE][B,DE][B,DE] [B,DE][B,DE][B,DE][B,DE] | %225
 [B,DE][B,DE][B,DE][B,DE] [B,DE][B,DE][B,DE][B,DE] |!mp! d'!p!c'd'c' d'c'!mp!d'c' | %227
 d'!p! [=CDF][CDF][CDF] [CDF][CDF][CDF][CDF] | d'^c'd'c' d'c'!mp!d'c' | d'2"_cresc." x4 [Ff]2- | %230
 [Ff]2 [Ee]4 [^D^d]2- | [Dd]2 [Ee]2!mf! [Gg]2!mp! [Cc]2 | %232
!p! [Ee][Dd]"_cresc."[Cc][Dd] [Cc][Dd][Ff][Aa] | ([Aa][Gg]).[Gg].[Gg] ([Gg][Ff]).[Ff].[Ff] | %234
 ([Ff][Ee]).[Ee].[Ee] ([Ee][^D^d]).[Dd].[Dd] | ([^D^d][Ee]).[Ee].[Ee] ([Ee][=D=d]).[Dd].[Dd] | %236
!f! [Cc]2 [Aa]2-!f! [Aa].[Bb].[Aa].[Gg] | .[Ff].[Ee].[Dd].[Cc] .[Dd].[Ff].[Ee].[Dd] | %238
 .[Cc].A.^G.A .[_B,_B].[=B,=B].[=C=c].[^C^c] | .[Dd].[Cc].[Dd].[Ee] .[=F=f].[^F^f].[Gg].[^G^g] | %240
 .[Aa]2 [Aea]2- [Aea].[_B_b].[Aa].[Gg]!f! | .[=F=f].[Ee].[Dd].[Cc] .[Dd].[Ff].[Ee].[Dd] | %242
 [Cc][^G^g][Aa]!f![Gg] [Aa][Bb][=c=c'][^c^c'] |!8va(! a2 x2 x4 | %244
 [ac'a']3!8va)!!f! [^Gd^g] [Aca]3!f! [DG] | .[CA].[D^G].[CA].[DG] .[CA].[DG].[CA].[DG] | %246
 [CA]2 A4!f! .^G2 | .=G2 .F2 .E2 .A2 |!p! [DF]4 [A,FA]7/2 [Dd]/ | [Fdf]6 [Fdf]>[Geg] | %250
 [Afa]2 [Afa]2 [Afa]2 [Bgb]2 | [Afa]4 [Fdf]2 z2 |!ff! [FBdf]4 [Bdfb]7/2 [dd']/ | %253
 [fbd'f']6 [dd']>[Bb]!ff! | .[eac'e']2 [cc']>[Aa] .[d^gbd']2 [Bb]>[^Gg]!ff!!ff! | %255
 .[Aca]2!p! A/B/c/d/ e/f/=g/f/ a/g/f/e/ | d2 d'/c'/d'/c'/ !//-!d'2 c'2 |!8va(! [af']6 d'>e' | %258
 .[af']2 .[af']2 .[af']2 .[bg']2 | [af']4 d'!8va)!!f! .F.B.d | %260
!ff! [FBf] .F.B.d [FBf] .[Ff].[Bb].[dd'] | [fbd'f']6 [dd']>[Bb] | %262
 .[ee']!ff![ee'][cc'][Aa] .[dd']!ff![dd'][Bb][^G^g] |!ff! !>![Aca] [Aa]2 [Aa]2 [Aa]2 [Aa]- | %264
 [Aa] !>![Aa]2 [Aa]2 [Aa]2 a | a4- a[Aa][Gg][Ff] | [Gg]4- [Gg][Gg][Ff][^E^e] | %267
 .[FAf][Ff][Ee][^D^d] .[EAe][Ee][=D=d][Cc] | .[DAd]!ff![Aa][Gg][Ff] [GAg]!ff![Gg][Ff][^E^e] | %269
 .[FAf]!ff! [ff'][ee'][dd'] [efe']!ff![ee'][dd'][cc'] | %270
 [dfd']!ff![dd'][=c=c'][Bb] [cdc']!ff![cc'][Bb][^A^a] | %271
 [Bdb]2 z3/2!ff! [gbd'g']/[Q:1/4=92]"^ten." [gbd'g']4 | %272
[Q:1/4=160] E2 z3/2 [gbe'g']/[Q:1/4=92]"^ten." [gbe'g']4 |[Q:1/4=160] z2 .[gae'g']2 z2 .[fad'f']2 | %274
 z2 .[gbe'g']2 z2 .[egc'e']2 | z2 z3/2 [g_bd'g']/[Q:1/4=92]"_ten." !^![gbd'g']4 | %276
[Q:1/4=160] z2 z3/2 [g_be'g']/[Q:1/4=92]"_ten." !^![gbe'g']4 |[Q:1/4=160] z4 z2!pp! E/^D/E/=F/ | %278
 .G2 z2 z2 =F/E/F/G/ | .A2 z2 z2 G/^F/G/A/ | .[_B,_B]2"_cresc." A/^G/A/=B/ .[=C=c]2 B/^A/B/^c/ | %281
 .[Dd]2 c/^B/c/d/ .[Ee]2 d/c/d/e/ |!ff! .[=F=f]2 d/c/d/e/ .[Ff]2 d/c/d/e/ | [=F=f]8 | [^G,^G]8 | %285
 [A,DFA][Dd][Ff][Aa]!8va(! [dd'][ff'][aa'][aa'] | %286
 [gac'e'a']4 Tc'/4d'/4c'/4d'/4c'/4d'/4c'/4d'/4c'/4d'/4c'/4d'/4b/c'/ | %287
 [fad']2!8va)! x2 x2!p! d/c/d/e/ | .[Ff]2 f/e/f/g/ .[Aa]2 a/_b/=c'/a/ |!ff! [G_Bdg]4 x2!ff! [Gg]2 | %290
 [Dd]2 [_B,_B]2 [A,A]2 [G,G]2 | d6!p! d/c/d/e/ | .[Ff]2 f/e/f/g/ .[Aa]2 a/_b/=c'/a/ | %293
!ff! [G_Bdg]4 x2!ff! [Gg]2 | [Dd]2 [_B,_B]2 [A,A]2 [G,G]2 | d6 [E_Bc]2 | d6 [G_Bce]2 | d6 [E_Bc]2 | %298
 d6 [G_Bce]2 | [FAd]2 [G_Bce]2 [FAd]2 [GBce]2 | [FAd]2 [G_Bce]2 [FAd]2 [GBce]2 | %301
!ff! .[DFAd] d/d'/ a/d/f/d/ d/A/a/A/ f/A/d/A/ | A/F/f/F/ d/F/A/F/ F/D/d/D/ A/D/F/D/ | %303
 .D.A.F.D .A,.F .[DFAd]2 | !>![FAdf]4 !>![Adfa]4 | .[dd']2 z2 .[Adfa]2 z2 | .D2 z2 .[=cfa=c']2 z2 | %307
!p! [=cea]6 [Bdg]2 | [A=cf]2 [GBe]2 [FAd]2 [DAc]2 | [DGB]2!p! [a=c'f']4 [gbe']2 | %310
 [fa^d']2 [eg=c']2 [^dfb]2 [Bfa]2 | [Beg]2!p! [ee']4 [dd']2 | [cc']2 [Bb]2 [Aa]2 [Geg]2 | %313
!f! [Fdf]2 D/C/D/E/ .F2 B/^A/B/c/ | d6 [^D^d]2 | [Ee]2 E/^D/E/F/ G2 c/B/c/d/ | e6 ^e2 | %317
 f2 d/c/d/e/ .[Ff]2!f! g/f/g/a/ | .[Bb]2!f! g/f/g/a/ .[Bb]2!f! c'/b/c'/d'/ | [ee']6!p! G/F/G/A/ | %320
!p! ._B2 .B2 .G2 .G2 |!ff! [cegc']6 G/F/G/A/ |!p! ._B2 .B2 .G2 .G2 |!ff! [d=fbd']8 | %324
 !^![dead']4 !^![ceac']4 | [dd']2 z2 z2!p! =c/B/c/d/ | ._e2 .e2 .=c2 .c2 | %327
!ff! [=cfa=c']6 c/B/c/d/ |!p! ._e2 .e2 .=c2 .c2 |!mf! !//-![=cfa]2 =c'2 !//-![cfa]2 c'2 | %330
 !//-![=cfa]2 =c'2 !//-![cfa]2 c'2 | !//-![=ca]2 =c'2 !//-![ca]2 c'2 | %332
 !//-![=ca]2 =c'2 !//-![ca]2 c'2 | !//-![_e=c']2 _e'2 !//-![ec']2 e'2 | %334
 !//-![_e=c']2 _e'2 !//-![ec']2 e'2 | !//-![^f^d']2 f'2 !//-![fd']2 f'2 | %336
 !//-![f^d']2 f'2 !//-![fd']2 f'2 | !//-![fc']2 f'2 !//-![f=c']2 f'2 | %338
 !//-![fb]2 f'2 !//-![fb]2 f'2 | !//-![gb]2 f'2 !//-![ea]2 e'2 | !//-![fa]2 e'2 !//-![db]2 d'2 | %341
 !//-![deb]2 d'2 !//-![deb]2 d'2 | !//-![ceg]2 c'2 !//-![ceg]2 c'2 |!ff! .[dfd']2 z2 z2 .[Dd]2 | %344
!ff! .D2 .[Fdf]2!ff! .D2 .[Afa]2 |!ff! .D2 [dd']2 .[ff'].[dd'].[Aa].[df] | %346
 .[Bb].[Gg].[Ee].[Bd] .[Gg].[Ee].[Ec].A | [Dd]6 .[Dd]>!ff!.d | %348
 .D2 .[Fdf]>!ff!.F .D2 .[Afa]>!ff!.A | .D2 .[dd']>.[dd'] .[ff'].[dd'].[Aa].[df] | %350
 .[Bb].[Gg].[Ee].[Bd] .[Gg].[Ee].[Ec].A | .d[dd'][dd'][dd'] [ff'][dd'][Aa][df] | %352
 [Bb][Gg][Ee][GB] [Gg][Ee][Ec]A |!f! [Dd]6 D/C/D/E/ | .[Ff]2 F/E/F/G/ .[Aa]2 AB/c/ | %355
[Q:1/4=92]"^ten." !>![dd']6[Q:1/4=160]!f! dc/B/ | .[Aa]2 A/B/A/G/ .[Ff]2 F/G/F/E/ | %357
 .[Dd]2 z3/2 [fad'f']/ [fad'f']2 z3/2 D/ | .A,2 z3/2 [eac'e']/ [eac'e']2 z3/2 A,/ | %359
 .D2 z3/2 [fad'f']/ [fad'f']2 z3/2 D/ | .A,2 z3/2 [eac'e']/ [eac'e']2 z3/2 [eac'e']/ | %361
 .[fad'f']2 z2 z2 z3/2 [Dd]/ | .[Dd]2 z2 .[dd']2 z2 |[Q:1/4=80] !fermata!D8 |] %364
V:2
!ped! [D,,D,]/4 | !fermata![D,,D,]3!ped-up! [D,A,][E,A,][F,A,] |!ped! [G,A,]4!ped-up! [F,A,]2 | %3
 [G,B,]3 [A,^D][G,E][E,G] | [A,F]2 [A,E] .[CE]/>.[B,D]/ .[A,C]/>.[G,B,]/ .[F,A,]/>.[E,G,]/ | %5
!ped! F,3!ped-up! [D,D][^A,,C][B,,D] | [^G,,B,]2 [=G,,_B,]2!ped! [F,A,=C^D]2!ped-up! | %7
!ped! [G,B,E] x3/4 x/4!ped-up!!ped! x2!ped-up! [A,,E,G,]2 | [F,A,] F,F,"_cresc."F,F,F, | %9
 z7/4 [^A,C]/4 [A,C]2 [B,D] z | z7/4 [B,D]/4 [B,D]2 [^CE] z | %11
 z7/4 [^CE]/4 [CE]2 [=D=F][=C,,=F,,=C,] | %12
!ped! [_B,,,_B,,]/!p! [B,,D,=F,_B,]/[B,,D,F,B,]/[B,,D,F,B,]/ [B,,D,F,B,]/[B,,D,F,B,]/[B,,D,F,B,]/[B,,D,F,B,]/!ped-up! [B,,D,F,B,]/[B,,D,F,B,]/[B,,D,F,B,]/[B,,D,F,B,]/ | %13
!ped! [_B,,,_B,,]/!p! [B,,_E,=F,A,]/[B,,E,F,A,]/[B,,E,F,A,]/ [B,,E,F,A,]/[B,,E,F,A,]/[B,,E,F,A,]/[B,,E,F,A,]/!ped-up! [B,,E,F,A,]/[B,,E,F,A,]/[B,,E,F,A,]/[B,,E,F,A,]/ | %14
!ped! [_B,,,_B,,]/!p! [B,,D,=F,_B,]/[B,,D,F,B,]/[B,,D,F,B,]/!ped-up! [B,,D,F,B,]/[B,,D,F,B,]/[B,,D,F,B,]/[B,,D,F,B,]/ [B,,D,F,B,]/[B,,D,F,B,]/[B,,D,F,B,]/[B,,D,F,B,]/ | %15
!ped! [_B,,,_B,,]/!p! [B,,_E,=F,A,]/[B,,E,F,A,]/[B,,E,F,A,]/ [B,,E,F,A,]/[B,,E,F,A,]/[B,,E,F,A,]/[B,,E,F,A,]/!ped-up! [B,,E,F,A,]/[B,,E,F,A,]/[B,,E,F,A,]/[B,,E,F,A,]/ | %16
!p!!ped! [_B,,,_B,,]2-"_cresc." [B,,,B,,]/4[A,,,A,,]/4[B,,,B,,]/4[=C,,=C,]/4!ped-up![D,,D,]/4[E,,E,]/4[=F,,=F,]/4[G,,G,]/4 [_A,,_A,]/4[G,,G,]/4[F,,F,]/4[E,,E,]/4[D,,D,]/4[C,,C,]/4[B,,,B,,]/4[_A,,,A,,]/4 | %17
!ped! G,,!mp!G,,/4A,,/8B,,/8=C,/8D,/8E,/8^F,/8!ped-up!!ped! [G,-B,D=F]/ G,/!ped-up![K:treble] d'!ped!!ped-up!!ped!b=f!ped-up! | %18
[K:bass]!ped! x2!ped-up!!ped![I:staff -1] (3!arpeggio![_B,EG]/!p![I:staff +1] [B,=C]/[B,C]/!ped-up! (3[B,C]/!ped![B,C]/[B,C]/!ped-up!!ped! (3[G,C]/[G,C]/[G,C]/(3[G,C]/[G,C]/[G,C]/!ped-up! | %19
!ped! !>!=F,,-!mp!F,,/4G,,/8A,,/8_B,,/8=C,/8D,/8=E,/8!ped-up!!ped![I:staff -1] [=C_EA]/[I:staff +1] x/!ped-up![K:treble] =c'!ped!!ped-up!!ped!a_e!ped-up! | %20
[K:bass]!ped! !>!^F,,-!mp!F,,/4G,,/8A,,/8_B,,/8=C,/8D,/8E,/8!ped-up!!ped![I:staff -1] [DA=c]/[I:staff +1] x/!ped-up![K:treble] a!ped!!ped-up!!ped!f=C!ped-up! | %21
[K:bass]!ped! x2!ped-up!!ped![I:staff -1] (3[_B,D]/!p![I:staff +1] [_B,D]/[B,D]/!ped-up! (3[B,D]/!ped![B,D]/[B,D]/!ped-up!!ped! (3[B,_EG]/[B,EG]/[B,EG]/(3[B,EG]/[B,EG]/[B,EG]/!ped-up! | %22
!ped! x2 A,,-A,,/8C,/8D,/8E,/8=F,/8G,/8A,/8B,/8!ped-up! (3[A,C=F]/[A,CF]/[A,CF]/ (3[A,CEG]/[A,CEG]/[A,CEG]/ | %23
!ff!!ped!{/D,-A,-D-} [D,A,D=F]7/4[D,D]/4!ped-up!!ped! !>![A,,A,]7/4[A,,A,]/4!ped-up! .[=F,,A,,=F,].[D,,A,,D,] | %24
 [A,,,A,,]6 |!p! ^D,2 E,>.F, .G,/.G,/.A,/._B,/ | %26
 C,2!p! (3.D,/.D,/.E,/ (3.F,/.F,/.G,/ (3.A,/.F,/.G,/ (3.A,/.B,/.=C/ | %27
 (3z/ .A,/.B,/ (3.=C/.B,/.A,/ (3.G,/.B,/.A,/ (3.G,/.A,/.F,/ (3.E,/.F,/.^D,/ (3.E,/.F,/.G,/ | %28
 (3z/ .G,/.A,/ (3._B,/.A,/.G,/ (3.F,/.A,/.G,/ (3.F,/.G,/.E,/ (3.D,/.F,/.A,/ (3.D/.D/.D/ | %29
!ped! [A,,A,B,] z3/4[K:treble]!p! d'/4 Td'3/2c'/4d'/4!ped-up!!ped! =f'/ x/ x!ped-up! | %30
[K:bass]!ped! [A,,A,] z3/4[K:treble]!p! c'/4 Tc'3/2b/4c'/4!ped-up!!ped! e'/ x/ x!ped-up! | %31
[K:bass]!ped! [A,,F,A,] z3/4[K:treble]!p! a/4 Ta3/2^g/4a/4!ped-up!!ped! d'/ x/ x!ped-up! | %32
[K:bass]!ped! [A,,E,A,] z3/4[K:treble]!p! a/4 Ta3/2^g/4a/4!ped-up!!ped! z/ x/ x!ped-up! | %33
[K:bass]!ped! (3[A,CE]/[A,,E,G,A,]/[A,,E,G,A,]/ (3[A,,E,G,A,]/[A,,E,G,A,]/[A,,E,G,A,]/"^cresc." (3[A,,E,G,A,]/[A,,E,G,A,]/[A,,E,G,A,]/(3[A,,E,G,A,]/[A,,E,G,A,]/[A,,E,G,A,]/ (3!arpeggio![A,,E,G,C]/[E,G,C]/[E,G,C]/(3[E,G,C]/[E,G,C]/[E,G,C]/!ped-up! || %34
[M:4/4] F, x x2 x4 |: F,6 F,/E,/F,/G,/ | .A,2 .A,2 .F,2 .F,2 | %37
!ped! z!p! [DF][DF][DF]!ped-up! [DF][DF][DF] z |!mp! G,,6 G,,/F,,/G,,/A,,/ | %39
 B,,6 B,,/^A,,/B,,/C,/ | .D,2 .D,2 .B,,2 .B,,2 | %41
!ped! z!p! [B,D][B,D][B,D]!ped-up! [B,D][B,D][B,D][B,D] |!mp! .D,2 .D,2 .=C,2 .C,2 | %43
 z!p! [A,=CD][A,CD][A,CD] [A,CD][A,CD][A,CD][A,CD] | %44
!mp! z!p! [B,D][B,D][B,D]!mp! z!p! [A,=C^D][A,CD][A,CD] | %45
!mp! z!p! [G,B,][G,B,][G,B,]!mp! z!p! [F,A,=C][F,A,C][F,A,C] | %46
!mp! z"_cresc."!ped! B,G,B,!ped-up! E,!ped!G,E,G,!ped-up! |!ped! D,D,D,D, D,D,!ped-up! x2 | %48
!ped! z D,D,D, D,D,!ped-up! x2 | %49
 .[A,,D,A,]2 A,/^G,/A,/B,/!ped! [=C,D,=CD][C,D,CD][C,D,CD][C,D,CD]!ped-up! | %50
 .[=C,D,=CD]2 .[A,,D,A,]2 .[F,,D,F,]2 .[=C,,C,]2 | %51
 .[B,,,B,,]2!ped! .[D,,B,,D,]2 .[G,,D,G,]2!ped-up! .[B,,G,B,]2 | %52
!ped! .[^C,,^C,]2 .[E,,C,E,]2 .[A,,E,A,]2!ped-up! .[C,A,C]2 | %53
 .[D,,D,]2 A,/^G,/A,/B,/!ped! [=C,D,=CD][C,D,CD][C,D,CD][C,D,CD]!ped-up! | %54
 .[=C,D,=CD]2 .[A,,D,A,]2 .[F,,D,F,]2 .[=C,,C,]2 | %55
 [_B,,,_B,,]2!ped! .[D,,B,,D,]2 .[G,,D,G,]2!ped-up! .[B,,G,_B,]2 | %56
!ped! .[C,,C,]2 .[E,,C,E,]2 .[A,,E,A,]2!ped-up! .[C,A,C]2 | %57
!ped! z2!f! [D=F][DF][DF][DF]!ped-up! D,/C,/D,/E,/ | .[=F,,=F,]2 .[F,,F,]2 .[D,,D,]2 .[D,,D,]2 | %59
!ped! z2!f! [D=F][DF][DF][DF]!ped-up! _B,,/A,,/B,,/=C,/ | %60
 .[D,,D,]2 .[D,,D,]2 .[_B,,,_B,,]2 .[B,,,B,,]2 | %61
!ff!!ped! [^G,,,^G,,][E,,E,][G,,^G,][E,,E,] [G,,G,]!ped-up![E,,E,][G,,G,][E,,E,] | %62
 [A,,A,][E,,E,]A,,[E,,E,] =C,[E,,E,]C,[E,,E,] | z ^D,E,D, E,F,=G,^G, | %64
 [=C,E,]E,,[C,E,]E,, [A,,E,]E,,[A,,E,]E,, | %65
!ped! [^G,,E,] [E,,E,][G,,^G,][E,,E,] [G,,G,]!ped-up![E,,E,][G,,G,][E,,E,] | %66
 [A,,A,][E,,E,][A,,A,][E,,E,] [=C,=C]E,[C,C]E, | [B,,B,] z!ped! E,4!ped-up!!ff! [E,E][D,D] | %68
 [=C,=C][D,D][C,C][B,,B,] [A,,A,][G,,G,][F,,F,][G,,=F,] | [E,,E,]3 [=F,A,^D] [E,^G,E]3 A, | %70
 ^G,A,G,A, G,A,G,A, | ^G,2 x2 x4 | .[=D,,=D,]2 .[C,,C,]2 .[B,,,B,,]2 .[E,,E,]2 | %73
!p!!ped! [A,,C,]4 [C,E,]7/2 [E,A,]/ | [A,C]4!ped-up! x4 | A,A,A,A, A,A,A,A, | A,A,A,A, A,A,A,A, | %77
!ped! !>![F,,F,]!>![F,,F,][C,C][A,,A,] !>![F,,F,]!>![F,,F,][C,C][A,,A,]!ped-up! | %78
!ped! !>![F,,F,]!ff!!>![F,,F,][C,C][A,,A,] !>![F,,F,]!>![F,,F,]!ped-up![^G,,^G,][A,,A,] | %79
!ped! [B,,E,^G,B,]!ff![B,,E,G,B,][B,,E,G,B,]!ped-up! z!ped! [B,,F,A,B,]!ff![B,,F,A,B,][B,,F,A,B,]!ped-up! z | %80
 [E,,E,]2!p! [E,^G,]2!<(! [G,B,]2 [B,D]2!<)! |!mp!!ped! [A,C]4[K:treble]"_cresc." [CE]7/2 [EA]/ | %82
 [Ac]6 [Ac]>!ped-up![Bd] | .[ce]2 .[Ace]2 .[Ace]2 .[Adf]2 | [Ace]4!f! .[Ac] z z2 | %85
[K:bass]!ped! !arpeggio!.[F,,C,F,A,] .A,.F,.C,!ped-up!!ped! !arpeggio!.[F,,C,F,A,] .A,.F,.C,!ped-up! | %86
!ped! !arpeggio![F,,C,F,A,] [F,F][C,C][A,,A,]!ped-up! !>![F,,F,]!>![F,,F,][^G,,^G,][A,,A,] | %87
 [B,,^G,B,]!ped![B,,G,B,][B,,G,B,]!ped-up! z [B,,F,A,B,]!ped![B,,F,A,B,][B,,F,A,B,]!ped-up! z | %88
!ped! [E,,E,]4- [E,,E,]E,!ped-up![D,D][C,C] |!ped! [D,D]4- [D,D][D,D]!ped-up![C,C][^B,,^B,] | %90
!ped! z E2 E2 x!ped-up! x2 |!ped! z E2 E2 x!ped-up! x2 | %92
 .[A,,E,A,]([E,E][D,D][C,C]) .[D,E,D]([D,D][C,C][^B,,^B,]) | %93
 .[C,E,C]([C,C][B,,B,])[A,,A,] .[B,,E,B,]([B,,B,][A,,A,])[^G,,^G,] | %94
 .[A,,E,A,]([A,,A,][^G,,^G,])[F,,F,] .[G,,C,G,]([G,,G,][F,,F,][^E,,^E,]) | %95
 .[F,,C,F,]([F,,F,][E,,E,][D,,D,]) .[E,,A,,E,]([E,,E,][D,,D,][C,,C,]) | %96
 .[D,,A,,D,]2 z3/2!ped! [DF]/ !^![DF]4!ped-up! | .[B,,D,F,B,]2 z3/2!ped! [DF]/ !^![DF]4!ped-up! | %98
 .[^G,,^G,]2 .[G,B,E]2 .[A,,A,]2 .[A,CE]2 | .[D,,D,]2 .[F,B,D]2 .[E,,E,]2 .[^G,B,E]2 | %100
!ped! .[F,,F,]2 z3/2 [F,A,DF]/ [F,A,DF]4!ped-up! | %101
!ped! [^G,,^G,]2 z3/2 [G,B,D=F]/ [G,B,DF]4!ped-up! | z4 z2 B,,,/^A,,,/B,,,/=C,,/ | %103
 .D,2 z2 z2 =C,,/B,,,/C,,/D,,/ | .E,2 z2 z2 D,,/C,,/D,,/E,,/ | %105
 .=F,2 E,,/D,,/E,,/=F,,/ .G,2 F,,/E,,/F,,/G,,/ | .A,2 ^G,,/F,,/G,,/A,,/ .B,,2 A,,/G,,/A,,/B,,/ | %107
 .=C,2 A,,/^G,,/A,,/B,,/ .C,2 A,,/G,,/A,,/B,,/ | !>!=C,8 | !>![^D,,^D,]8 | %110
!ped! [E,,A,,^C,E,]2 [E,,A,,C,E,]>[E,,A,,C,E,] [E,,A,,C,E,]2 [E,,A,,C,E,]2!ped-up! | %111
!ped! E,^G,B,E DEDB,!ped-up! | %112
!mf!!ped! A,/^G,/!p!A,/G,/ A,/G,/A,/G,/!ped-up!!ped! !//-!A,2 G,2!ped-up! | %113
!ped! !//-!A,2 ^G,2!ped-up!!ped! A,/G,/A,/G,/!ped-up! .A, z | %114
!ped! z [D=F][DF][DF] [DF][DF]!ped-up! DD | A,A, =F,A, E,A, D,F, | %116
!mf!!ped! A,/^G,/!p!A,/G,/ A,/G,/A,/G,/!ped-up!!ped! !//-!A,2 G,2!ped-up! | %117
!ped! !//-!A,2 ^G,2!ped-up!!ped! A,/G,/A,/G,/!ped-up! .A, z | %118
!ped! z [D=F][DF][DF] [DF][DF]!ped-up! DD | A,A, =F,A, E,A, D,F, | %120
!p! .[A,,,A,,]2 [=F,,=F,]2 [E,,E,]2 [D,,D,]2 |!p! .[A,,,A,,]2 [=F,,=F,]2 [E,,E,]2 [D,,D,]2 | %122
!p! .[A,,,A,,]2 [=F,,=F,]2 [E,,E,]2 [D,,D,]2 |!p! .[A,,,A,,]2 [=F,,=F,]2 [E,,E,]2 [D,,D,]2 | %124
!p! [A,,,A,,]2 [D,,D,]2!p! [A,,,A,,]2 [D,,D,]2 |!p! [A,,,A,,]2 [D,,D,]2!p! [A,,,A,,]2 [D,,D,]2 | %126
!ff!!ped! x4 AECA,!ped-up! |!ped! ECA,E, CA,E,C,!ped-up! | %128
!ped! A,E,C,E, z!ped-up! [A,,A,][E,,E,][C,,C,] | %129
 [A,,,A,,][A,,A,][E,,E,][C,,C,] [A,,,A,,][A,,A,][E,,E,][C,,C,] |!ped! [A,,,A,,]2 z2 x4 | %131
 [A,,,A,,]2 z2 x4!ped-up! |1 x8 | x4 z2 x (3A,,/!p!B,,/C,/ | D,6 D,/C,/D,/E,/ :|2 x8 | %136
 x4 z2!p! A,,/^G,,/A,,/G,,/ ||!ped! .[A,,,A,,]2 z2 x4 |!f! .[A,,,A,,]2 z2 x4!ped-up! | x8 | %140
 x4 z2 x (3A,,/!p!B,,/C,/ | [D,,D,]6 D,/C,/D,/E,/ | [=F,,=F,]6 F,/E,/F,/G,/ | %143
 .[A,,A,]2 .[A,,A,]2 .[=F,,=F,]2 .[F,,F,]2 |!ped! z DDD DDDD!ped-up! | %145
 [_B,D_E] z!p! ._B,,2"_cresc." .[G,,G,]2 .[G,,G,]2 | %146
!ped! z [_B,D_E][B,DE][B,DE] [B,DE][B,DE][B,DE][B,DE]!ped-up! | %147
 [=CDF] z .=C,2 .[A,,A,]2 .[A,,A,]2 |!ped! z [=CDF][CDF][CDF] [CDF][CDF][CDF][CDF]!ped-up! | %149
!f!!ped! [G,_B,DG]4 !^!G,4!ped-up! | G,2 .[=B,,B,]2 .[=C,=C]2 .D,2 | %151
!f!!ped! _E[I:staff -1]=F!ped-up!.G.F[I:staff +1] .=C4!ped!!ped-up! | %152
 .[=C,=C].[D,D].[_B,,_B,].[C,C] .[A,,A,].[B,,B,].[G,,G,].[A,,A,] | x4 !^!=F4 | %154
 .A,,2 .[=A,,=A,]2 .[_B,,_B,]2 .=C,2 | %155
!f!!ped! D[I:staff -1]_E!ped-up!.=F.E[I:staff +1] ._B,4!ped!!ped-up! | %156
 .[_B,,_B,].[=C,=C].[A,,A,].[B,,B,] .[G,,G,].[A,,A,].[=F,,=F,].[G,,G,] | %157
 .[E,,E,]2 .[=F,,=F,]2 .[G,,G,]2 .[^G,,^G,]2 | (A,_B,).G,.A, .=F,.G,.E,.F, | %159
 .[D,,D,]2 .[E,,E,]2 .[=F,,=F,]2 .[^F,,^F,]2 | %160
 ([G,,G,][A,,A,]).[=F,,=F,].[G,,G,] .[E,,E,].[F,,F,].[D,,D,].[E,,E,] | %161
!ped! [=C,,=C,]2[K:treble] E/^D/E/F/!ped-up! G2[K:bass] E,/F,/E,/^D,/ | %162
 .[=C,E,G,]2 E,/F,/E,/^D,/ .[C,E,G,]2 E,/F,/E,/D,/ | %163
!ped! z2[K:treble] E/^D/E/F/!ped-up! .G2[K:bass] E,/F,/E,/^D,/ | %164
 .[B,,E,G,]2 E,/F,/E,/^D,/ .[B,,E,G,]2 E,/F,/E,/D,/ | %165
!ped! z2[K:treble] E/^D/E/F/!ped-up! .G2[K:bass] E,/F,/E,/^D,/ | %166
!ped! z2[K:treble] E/^D/E/F/!ped-up! .G2[K:bass] =D,/E,/D,/C,/ | %167
!ped! z2 D/C/D/E/!ped-up! .=F2 D,/E,/D,/C,/ |!ped! z2 D/C/D/E/!ped-up! .=F2 [_A,,_A,]2 | %169
!ped! .[G,,G,]2!ff!"_marcatissimo" !>!G,,/!>!^F,,/!>!G,,/!>!A,,/!ped-up!!ped! .B,,2 (3!>!G,!>!B,!>!D!ped-up! | %170
!ped! .G2 !>!=C,/!>!B,,/!>!C,/!>!D,/!ped-up!!ped! .E,2 (3!>!E,!>!G,!>!=C!ped-up! | %171
!ped! .E2 !>!E,,/!>!^D,,/!>!E,,/!>!F,,/!ped-up!!ped! .^G,,2 (3!>!E,!>!^G,!>!B,!ped-up! | %172
!ped! .E2 !>!A,,/!>!^G,,/!>!A,,/!>!B,,/!ped-up!!ped! .=C,2 E2!ped-up! | %173
!ped! x2 !>!D,,/!>!^C,,/!>!D,,/!>!E,,/!ped-up!!ped! F,,2 x2!ped-up! | %174
!ped! z!f! [D,=CD][D,CD][D,CD]!ped-up!!ff!!ped! z!f! [D,CD][D,CD][D,CD]!ped-up! | %175
!ped! x2!ff! !>!=C,/!>!B,,/!>!C,/!>!B,,/!ped-up!!ped! A,,2 x2!ped-up! | %176
!ped! z!f! [D,=CD][D,CD][D,CD]!ped-up!!ff!!ped! z!f! [D,CD][D,CD][D,CD]!ped-up! | %177
!ped! x2!ff! !>!D,,/!>!^C,,/!>!D,,/!>!E,,/!ped-up!!ped! F,,2 x2!ped-up! | %178
!ped! z!f! [D,=CD][D,CD][D,CD]!ped-up!!ff!!ped! z!f! [D,CD][D,CD][D,CD]!ped-up! | %179
!ped! x2!ff! !>!=C,/!>!B,,/!>!C,/!>!B,,/!ped-up!!ped! A,,2 x2!ped-up! | %180
!ped! z!f! [D,=CD][D,CD][D,CD]!ped-up!!ff!!ped! z!f! [D,CD][D,CD][D,CD]!ped-up! | %181
 [D,=CD]2[K:treble] [FA]4 [G_B]2 | [FA]6 [G_B]2 | [FA]2 A/^G/A/B/ .D2 F/^E/F/=G/ | .D2 z2 z4 | %185
[K:bass]!p!!ped! G,,G,G,G, G,,G,G,G, | G,,G,G,G, G,G,G,G,!ped-up! | G,G,G,G, G,G,G,G, | %188
 G,G,G,G, G,,G,D,B,, | G,, z z2 z4 |!p! (3.D.B,.=C (3.D.B,.C (3.D.B,.D (3._E.C.E | .[G,D] z z2 z4 | %192
!p! (3.B,.=F.D (3.B,.F.D (3.B,.F.E (3.D.E.F | .[A,E] z z2 z4 | %194
!p! (3.E.C.D (3.E.C.D (3.E.C.E (3.=F.D.F | .[A,E] z z2 z4 | %196
!p! (3.E.G.F (3.E.G.F (3.E.G.F (3.E.F.G | .[B,F] z z2 z4 |[K:treble] (3F^DE (3FDE (3FDF (3^G^EG | %199
!ped! (3FB,[K:bass]B, (3B,,B,B, (3FB,B, (3B,,B,B,!ped-up! | %200
!ped![I:staff -1] (3[FA][I:staff +1]^B,B, (3^B,,B,B,[I:staff -1] (3[FA][I:staff +1]B,B, (3B,,B,B,,!ped-up! | %201
!ff! [C,C][^B,,^B,][C,C][B,,B,] [C,C][D,D][C,C][=B,,=B,] | %202
 [A,,A,][C,C][^B,,^B,][C,C] [=B,,=B,][A,,A,][^G,,^G,][F,,F,] | %203
 [^E,,^E,][F,,F,][^G,,^G,][F,,F,] [E,,E,][C,,C,][^D,,^D,][E,,E,] | %204
 [F,,F,][^E,,^E,][F,,F,][^G,,^G,] [A,,A,][G,,G,][A,,A,][B,,B,] | %205
 !^![C,C][^B,,^B,][C,C][B,,B,] [C,C][D,D][C,C][=B,,=B,] | %206
 [A,,A,][C,C][^B,,^B,][C,C] [=B,,=B,][A,,A,][^G,,^G,][F,,F,] | %207
 [^E,,^E,][F,,F,][^G,,^G,][F,,F,] [E,,E,][C,,C,][^D,,^D,][E,,E,] | %208
 [F,,F,][^E,,^E,][F,,F,][^G,,^G,] [A,,A,][G,,G,][A,,A,][B,,B,] | %209
!ped! z!ff! .^E.C.^G, .^E,.C.G, z/ [C,,C,]/!ped-up! | %210
!ped! z .F.C.A, .F,.C.A, z/ !>![F,,F,]/!ped-up! | %211
!ped! z!ff! .^E.C.^G, .^E,.C.G, z/ [C,,C,]/!ped-up! | %212
!ped! z .F.C.A, .F,.C.A, z/ !>![F,,F,]/!ped-up! |!ped! z .^G.^E.C .^G,.E.C.G, | %214
 .^E,.C.^G,.E, C,.C.G,.E,!ped-up! |!ped! [C,,C,]8- | [C,,C,]8 | [C,,A,,C,]8!ped-up! | %218
!ped! C!>(!DEF!ped-up! GA,B,C!>)! | D,6!mp! D,/C,/D,/E,/ | F,6 F,/E,/F,/G,/ | .A,2 .A,2 .F,2 .F,2 | %222
!ped! z!p! [DF][DF][DF]!ped-up! [DF][DF][DF] z |!mp! G,,6 G,,/F,,/G,,/A,,/ | %224
 B,,6 B,,/^A,,/B,,/C,/ | .D,2 .D,2 .B,,2 .B,,2 | z [B,DE][B,DE][B,DE] [B,DE][B,DE][B,D^E][B,DE] | %227
 [=CDF] z!mp! .D,2 .=C,2 .C,2 | z!p! [=CDF][CDF][CDF] [CDF][CDF][CDF][CDF] | %229
!mp! z!p! [B,DG][B,DG][B,DG]!mp! z!p! [A,=C^D][A,CD][A,CD] | %230
!mp! z!p! [G,B,][G,B,][G,B,]!mp! z!p! [F,A,=C][F,A,C][F,A,C] | %231
!mp!!ped! z!p! B,G,B,!mp! E,!p!G,E,G,!ped-up! | F,2 D,2 F,2 A,2 | %233
!mp! z!p! [B,D][B,D][B,D]!mp! z!p! [A,=C][A,C][A,C] | %234
!mp! z!p! [G,B,][G,B,][G,B,]!mp! z!p! [F,A,=C][F,A,C][F,A,C] | %235
!mp! z [G,B,][G,B,][G,B,] z [^G,B,][G,B,][G,B,] | %236
!mf!!ped! [E,,E,][A,,A,] [C,C][A,,A,] [C,C]!ped-up![A,,A,][C,C][A,,A,] | %237
 [D,D][A,,A,]D,[A,,A,] F,[A,,A,]F,[A,,A,] | E,[A,,A,]E,[A,,A,] G,[A,,A,]G,[A,,A,] | %239
 F,[A,,A,]F,[A,,A,] D,[A,,A,][D,F,][A,,A,] | %240
 [C,E,][A,,A,]!ped![C,C][A,,A,] [C,C]!ped-up![A,,A,][C,C][A,,A,] | %241
 [D,D][A,,A,]D,[A,,A,] =F,[A,,A,]F,[A,,A,] | E, z!ped! [A,,A,]4!ped-up! [A,,A,][G,,G,] | %243
 [=F,,=F,][G,,G,][F,,F,][E,,E,] [D,,D,][=C,,=C,][B,,,B,,][_B,,,_B,,] | %244
 [A,,,A,,]3 [_B,,_B,] [A,,A,]3 [B,,B,] | %245
 .[A,,A,].[_B,,_B,].[A,,A,].[B,,B,] .[A,,A,].[B,,B,].[A,,A,].[B,,B,] | .[A,,A,]2 A,4 .^G,2 | %247
 .=G,2 .F,2 .E,2 .A,2 |!p!!ped! F,4 x4 | D,DDD!ped-up! DDDD | DDDD DDDD | DDDD DDDD | %252
!ped! [B,,B,][B,,B,][F,F][D,D] [B,,B,][B,,B,][F,F][D,D] | %253
 [B,,B,][B,,B,][F,F][D,D]!ped-up! [B,,B,][B,,B,][F,F][D,D] | %254
!ped! [E,A,CE][E,A,CE][E,A,CE] z!ped-up!!ped! [E,^G,B,E][E,G,B,E][E,G,B,E] z!ped-up! | %255
 .[A,,A,]2[K:treble]!p! [A,C]2!<(! [CE]2 [E=G]2!<)! |!ped!!mp! [DF]4 [FA]7/2 d/ | %257
 !arpeggio![Af]6!ped-up! [Fd]>[Ge] |!ped! [Af]2 !arpeggio![DAf]2 !arpeggio![DAf]2!ped-up! [Bdg]2 | %259
!ped! [Adf]4 [Fd]!ped-up! z z2 | %260
[K:bass]!ped! !arpeggio![B,,F,D] .D.B,.F, !arpeggio![B,,F,D] .D.B,.F, | %261
 !arpeggio![B,,F,D]!ff! [F,F][D,D][C,C]!ped-up! [B,,B,][B,,B,]!f![C,C][D,D] | %262
 [E,A,CE]!ped![E,A,CE][E,A,CE] z!ped-up! [E,B,DE]!ped![E,B,DE][E,B,DE] z!ped-up! | %263
!ped! [A,,A,]4- [A,,A,][A,,A,]!ped-up![=G,,=G,][F,,F,] | %264
!ped! [G,,G,]4-!ff! [G,,G,][G,,G,]!ped-up![F,,F,][^E,,^E,] |!ped! z!ff! !>!A,2 A,2 x!ped-up! x2 | %266
!ped! z !>!A,2 A,2 x!ped-up! x2 | %267
 .[D,,D,][A,,A,][G,,G,][F,,F,] .[G,,G,][G,,G,][F,,F,]!ff!!ff![^E,,^E,] | %268
 .[F,,F,][F,,F,][E,,E,][^D,,^D,] .[E,,E,][E,,E,][=D,,=D,][C,,C,] | %269
 .[D,,D,] [D,D][C,C][B,,B,] .[C,F,C][C,C][B,,B,][^A,,^A,] | %270
 .[B,,F,B,][B,,B,][A,,A,][G,,G,] .[A,,D,A,][A,,A,][G,,G,][F,,F,] | %271
!ped! .[G,,D,G,]2 z3/2[K:treble] [B,DGB]/ [B,DGB]4!ped-up! | %272
[K:bass]!ped! .[E,,E,]2 z3/2[K:treble] [B,EGB]/ [B,EGB]4!ped-up! | %273
[K:bass] .[C,,C,]2[K:treble] .[CEGA]2[K:bass] .[D,,D,]2[K:treble] .[DFA]2 | %274
[K:bass] .[G,,G,]2[K:treble] .[B,EGB]2[K:bass] .[A,,A,]2[K:treble] .[A,CEG]2 | %275
[K:bass]!ped! [_B,,_B,]2 z3/2[K:treble] [_B,DG_B]/ !^![B,DGB]4!ped-up! | %276
[K:bass]!ped! [C,,C,]2 z3/2[K:treble] [CEG_B]/ !^![CEGB]4!ped-up! | %277
[K:bass] z4 z2 E,,/^D,,/E,,/=F,,/ | .G,2 z2 z2 =F,,/E,,/F,,/G,,/ | .A,2 z2 z2 G,,/^F,,/G,,/A,,/ | %280
 ._B,,2 A,,/^G,,/A,,/=B,,/ .=C,2 B,,/^A,,/B,,/^C,/ | .D,2 C,/^B,,/C,/D,/ .E,2 D,/C,/D,/E,/ | %282
 .=F,2 D,/C,/D,/E,/ .F,2 D,/C,/D,/E,/ | [=F,,=F,]8 | [^G,,,^G,,]8 | %285
!ff!!ped! [A,,,A,,]2 [A,,D,F,A,]>[A,,D,F,A,] [A,,D,F,A,]2 [A,,D,F,A,]2!ped-up! | %286
!ped! [A,,C,E,A,][C,C][E,E][A,A] [G,G][A,A][G,G][E,E]!ped-up! | %287
 .[D,F,A,D]2!p! D/C/D/C/ !//-!D2 C2 | !//-!D2 C2 D/C/D/C/ .D z | %289
!ped! z [G,_B,][G,B,][G,B,] [G,B,][G,B,] G,G, | D,D, _B,,D,!ped-up! A,,D, G,,B,, | %291
 .[D,F,A,D]2!p! D/C/D/C/ !//-!D2 C2 | !//-!D2 C2 D/C/D/C/ .D z | %293
!ped! z [G,_B,][G,B,][G,B,] [G,B,][G,B,] G,G, | D,D, _B,,D,!ped-up! A,,D, G,,B,, | %295
!p!!mp! [D,,D,]2 [_B,,_B,]2 [A,,A,]2 [G,,G,]2 |!p!!mp! [D,,D,]2 [_B,,_B,]2 [A,,A,]2 [G,,G,]2 | %297
!p!!mp! [D,,D,]2 [_B,,_B,]2 [A,,A,]2 [G,,G,]2 |!p!!mp! [D,,D,]2 [_B,,_B,]2 [A,,A,]2 [G,,G,]2 | %299
!mp! [D,,D,]2 [G,,G,]2!mp! [D,,D,]2 [G,,G,]2 |!mp! [D,,D,]2 [G,,G,]2!mp! [D,,D,]2 [G,,G,]2 | %301
!ped! x4 DA,F,D,!ped-up! |!ped! A,F,D,A,,!ped-up!!ped! F,D,A,,F,,!ped-up! | %303
 D,.A,.F,.D, .A,,.F,.D,.[A,,A,] | .[F,,F,].[D,D].[A,,A,].[F,,F,] .[D,,D,].[D,D].[A,,A,].[F,,F,] | %305
!ped! .[D,,D,]2 z2 .[F,A,DF]2 z2 | .[D,,D,]2 z2 z4!ped-up! | z8 | z4 z2 z!p!!ped! (3D,,/E,,/F,,/ | %309
 G,,!ped-up! z z2 z4 | z4 z2 z!ped! (3B,,/C,/^D,/!ped-up! | E,2[I:staff -1] [GB]4 [FA]2 | %312
 [EG]2 [DF]2 [CE-]2 [A,E]2!ped!!ped-up! |[I:staff +1] .[D,,D,]2 [D,F,]4!f! [C,E,]2 | %314
 [B,,D,B,]2 [A,,=C,A,]2 [G,,B,,G,]2 [F,,A,,F,]2 | .[E,,G,,E,]2 [E,G,]4!f! [D,F,]2 | %316
 [C,E,C]2 [B,,D,B,]2 [A,,C,A,]2 [G,,B,,G,]2 | %317
 .[F,,A,,F,] .[F,A,]2!f! .[E,G,] .[D,F,].[C,E,].[B,,D,].[A,,C,] | %318
 .[G,,B,,] [G,B,]2!f! .[F,A,] .[E,G,].[D,F,].[C,E,].[B,,D,] | %319
!ped! [A,,C,G,]6 G,/F,/G,/A,/!ped-up! | ._B,2 .B,2 .G,2 .G,2 | %321
!ped! !//-!A,,,3 A,,3 G,/F,/G,/A,/!ped-up! | ._B,2 .B,2 .G,2 .G,2 | %323
!ped! !//-![^G,,,D,,]2 ^G,,2 !//-![G,,,D,,]2 G,,2!ped-up! | %324
!ped! !//-!!^![A,,,E,,]2 A,,2!ped-up!!ped! !//-!!^![A,,E,]2 A,2!ped-up! | %325
!ped! x4 x2!ped-up! =C/B,/C/D/ | ._E2 .E2 .=C2 .C2 |!ped! !//-!D,,3 D,3!ped-up! =C/B,/C/D/ | %328
 ._E2 .E2 .=C2 .C2 |!ff!!ped! x4[K:treble] [A,=CF]4!ped-up! | %330
[K:bass]!ped! x4[K:treble] [A,=CF]4!ped-up! | %331
[K:bass]!ped! x2[K:treble] [A,=CE]2!ped-up![K:bass]!ped! x2[K:treble] [A,C_E]2!ped-up! | %332
[K:bass]!ped! x4[K:treble] [=C_EA]4!ped-up! | %333
[K:bass]!ped! x2[K:treble] [=C_EG]2!ped-up![K:bass]!ped! x2[K:treble] [CEF]2!ped-up! | %334
[K:bass]!ped! x4[K:treble] [_EF=c]4!ped-up! | %335
[K:bass]!ped! x2[K:treble] [^D^F_B]2!ped-up![K:bass]!ped! x2[K:treble] [DFA]2!ped-up! | %336
[K:bass]!ped! x4[K:treble] [=C^DFA]4!ped-up! | %337
[K:bass]!ped! x2[K:treble] [^CFA]2!ped-up![K:bass]!ped! x2[K:treble] [DFA]2!ped-up! | %338
[K:bass]!ped! [^D,^D]2[K:treble] [^DFB]2!ped-up![K:bass]!ped! [B,,B,]2[K:treble] [B,DFA]2!ped-up! | %339
[K:bass]!ped! [E,,E,]2[K:treble] [B,FG]2!ped-up![K:bass]!ped! [C,,C,]2[K:treble] [A,EG]2!ped-up! | %340
[K:bass]!ped! [D,,D,]2[K:treble] [A,EF]2!ped-up![K:bass]!ped! [B,,,B,,]2[K:treble] [B,DF]2!ped-up! | %341
[K:bass]!ped! [G,,G,]2!ff! .[G,B,DE]2 .[G,,G,]2 .[G,,,G,,]2!ped-up! | %342
!ped! .[A,,,A,,]2!ff! .[A,,C,E,A,]2 .[A,CEA]2 .[A,,C,E,A,]2!ped-up! | %343
 [D,,D,] [B,,B,][A,,A,][G,,G,] [F,,F,][G,,G,][F,,F,][E,,E,] | %344
 [F,,F,][B,,B,][A,,A,][G,,G,] [F,,F,][G,,G,][F,,F,][E,,E,] | %345
 [D,,D,][B,,,B,,][A,,,A,,][G,,,G,,]!ped! !>![F,,,F,,]2 [F,A,D]2!ped-up! | %346
!ped! [G,,,G,,]2 [E,G,B,D]2!ped-up!!ped! [A,,,A,,]2 [E,G,A,C]2!ped-up! | %347
!ped! [D,,D,]2 [C,C][B,,B,]!ped-up! [A,,A,][B,,B,][A,,A,][G,,G,] | %348
 [F,,F,][B,,B,][A,,A,][G,,G,] [F,,F,][G,,G,][F,,F,][E,,E,] | %349
 [D,,D,][B,,,B,,][A,,,A,,][G,,,G,,]!ped! !>![F,,,F,,]2 [F,A,D]2!ped-up! | %350
!ped! [G,,,G,,]2 [E,G,B,D]2!ped-up!!ped! [A,,,A,,]2 [E,G,A,C]2!ped-up! | %351
 [F,,F,][D,,D,][A,,,A,,][G,,,G,,]!ped! !>![F,,,F,,]2 [F,A,D]2!ped-up! | %352
!ped! [G,,,G,,]2 [E,G,B,D]2!ped-up!!ped! [A,,,A,,]2 [E,A,C]2!ped-up! | %353
!ped! [D,,D,]6 D,/C,/D,/E,/!ped-up! | .[F,,F,]2 F,/E,/F,/G,/ .[A,,A,]2 A,B,/C/ | %355
!ped! !>![D,D]6 DC/B,/!ped-up! | .[A,,A,]2 A,/B,/A,/G,/ .[F,,F,]2 F,/G,/F,/E,/ | %357
!ped! [D,,D,]2 z3/2[I:staff -1] [DFAd]/ [DFAd]2!ped-up![I:staff +1] z3/2 [D,,D,]/ | %358
 .[A,,,A,,]2 z3/2[I:staff -1] [A,CEGA]/ [A,CEGA]2[I:staff +1] z3/2 [A,,,A,,]/ | %359
!ped! .[D,,D,]2 z3/2[I:staff -1] [DFAd]/ [DFAd]2!ped-up![I:staff +1] z3/2 [D,,D,]/ | %360
!ped! .[A,,,A,,]2 z3/2[I:staff -1] [A,CEGA]/ [A,CEGA]2!ped-up![I:staff +1] z3/2 [A,,,A,,]/ | %361
!ped! .[D,,D,]2 z2 z2!ped-up! z3/2!ff! [D,,D,]/ | .[D,,D,]2 z2 .[D,D]2 z2 | !fermata![D,,D,]8 |] %364
V:3
 x/4 | x6 | E4 B2 | x6 | x2 x2 x x/ x/4 d/4 | [Ff]3 x x2 | x2 x2 [A=c]2 | %7
 B x3/4 F/4 TG3/4{/FG}A/4 B- (3B/G/E/ (3G/E/C/ | D x2 B,[^A,C][B,D] | [F,CEF]2 x4 | [G,D=FG]2 x4 | %11
 [A,E=GA]2 x4 | x6 |!8va(! x6 | x!8va)! x5 |!8va(! x4!8va)! x2 | %16
 [D=F_B]/!p![DFB]/[DFB]/[DFB]/ [FBd]/[FBd]/[FBd]/[FBd]/ [F=cd]/[Fcd]/[^Fcd]/[Fcd]/ | %17
 x2 (3z/!p! [B,D=F]/[B,DF]/ [B,DF]/ z/ (3z/!p! [B,DFG]/[B,DFG]/(3[B,DFG]/[B,DFG]/[B,DFG]/ | %18
 x2 z/ x/[I:staff +1] GE[I:staff -1]_B, | %19
 x2 (3x/!p! [=C_E]/[CE]/ [CE]/ z/ (3z/!p! [CEA]/[CEA]/(3[CEA]/[CEA]/[CEA]/ | %20
 x2 (3x/!p! [DA=c]/[DAc]/ [DAc]/ z/ (3z/!p! [DAc]/[DAc]/(3[DAc]/[DAc]/[DAc]/ | x2 x/ x/ d_ed | %22
 x3 (3[EG]/[EG]/[EG]/ (3[Gc]/[Gc]/[Gc]/ c/8d/8e/8=f/8g/8a/8b/8c'/8 | x6 | x6 | x6 | x6 | %27
 ^D2 x .E/.F/ .G/.G/.A/.B/ | C2 x .D/.E/ .F/.F/.G/.A/ | [=F^G]/ x/ x x2 Td3/2c/4d/4 | %30
 [CE=G]/ x/ x x x Tc3/2=B/4c/4 | [DF]/ x/ x x x TA3/2^G/4A/4 | [DE]/ x/ x x x TA3/2^G/4A/4 | x6 || %34
[M:4/4] x8 |: x8 | x8 | x8 | x8 | x8 | x8 | x8 | z!p! [=CDF][CDF][CDF] [CDF][CDF][CDF][CDF] | x8 | %44
 x8 | x8 | z BGB GEGE | D!mp!DDD DD x2 | z!mp! DDD DD x2 | x4 [=cd]!mp![cd][cd][cd] | x8 | x8 | %52
 x8 | x4 [=cd]!mp![cd][cd][cd] | x8 | x8 | x8 | x4 z2!f! D/C/D/E/ | =F z x2 x4 | %59
 x4 z2!f! _B,/A,/B,/=C/ | D z x2 x4 | x8 | x8 | x8 | x8 | x8 | x8 | x8 | x8 | x8 | x8 | x8 | x8 | %73
 A,A,A,A, A,A,A, x | x8 | x8 | x8 | x8 | x8 | x8 | x8 | x8 | x6 a/^g/a/b/ | %83
 c'/^g/a/g/ a/g/a/g/ a/g/a/g/ a/g/a/g/ | a/^g/a/g/ a/g/a/g/ a x3 | x8 | x8 | x8 | x8 | x8 | %90
!8va(! z!ff! !>!e2 e2 x x2 | z!ff! !>!e2 e2 x x2!8va)! | x8 | x8 | x8 | x8 | x8 | x8 | x8 | x8 | %100
 x8 | x8 | x8 | x8 | x8 | x8 | x8 | x8 | x8 | x8 | [A,^C]2 x2 x4 | x4 [Be]2 x2 | A6!mp! A/^G/A/B/ | %113
 x8 | [d=f]!mf![df][df][df] [df][df] dd | AA =F[FA] [EA][EA] [DA][DA] | !arpeggio![CE]2 x6 | x8 | %118
 [d=f]!mf![df][df][df] [df][df] dd | AA =F[FA] [EA][EA] [DA][DA] | A,A,A,A, A,A,[A,B,][A,B,] | %121
 A,A,A,A, A,A,[A,B,]A, | A,A,A,A, A,A,[A,B,][A,B,] | A,A,A,A, A,A,[A,B,][A,B,] | %124
 A,A,A,A, A,A,A,A, | A,A,A,A, A,A,A,A, | x8 | x8 | x8 | x8 | x2 x2 [A,CEA]2 z2 | %131
 x2 x2 [A,CEA]2 z2 |1 [GB]6 [FA]2 | [EG]2 [DF]2 C2 A,2 | x8 :|2 [GB]6 [FA]2 | %136
 [EG]2 [DF]2 [CE]2 x2 || .A,2 x2 .[A,CEA]2 z2 | .A,2 x2 .[A,CEA]2 z2 | [G_B]6 [=FA]2 | %140
 [EG]2 [D=F]2 C2 A,2 | x8 | x8 | x8 | d8 | e x x2 x4 | _e8 | f x x2 x4 | x8 | g2 x2 x4 | x8 | x8 | %152
 =c8 | x8 | x8 | x8 | !^!_B4- B.=c.A.B | x4 x A=FG | E2 x2 x4 | x4 x GE=F | D2 x2 x4 | %161
 x2!8va(! x4!8va)! x2 | x8 | [B,EG]4!8va(! x4!8va)! | x8 | [_B,CEG]4!8va(! x4!8va)! | %166
 [A,CEG]4!8va(! x4!8va)! | [A,D=F]4!8va(! x4!8va)! | [_A,D=F]4!8va(! x2!8va)! =C2 | x8 | x8 | x8 | %172
 x8 |[I:staff +1] [D,=CD]!f![D,CD][D,CD][D,CD] [D,CD][D,CD][D,CD][D,CD] | x8 | %175
 [D,=CD]!f![D,CD][D,CD][D,CD] [D,CD][D,CD][D,CD][D,CD] | x8 | %177
 [D,=CD]!f![D,CD][D,CD][D,CD] [D,CD][D,CD][D,CD][D,CD] | x8 | %179
 [D,=CD]!f![D,CD][D,CD][D,CD] [D,CD][D,CD][D,CD][D,CD] | x8 |[I:staff -1] x2 d4!<(! _e2!<)! | %182
 d6!p!!>(! _e2 | d2!>)! x2 =c2 x2 | A2 x2 x4 | x8 | x8 | x8 | x8 | x8 | %190
 (3z!p! .d.=c (3.B.d.c (3.B.d.B (3.c._e.c | x8 | (3.=f!p!.d.e (3.f.d.e (3.f.d.e (3.f.e.d | x8 | %194
 (3z!p! .e.d (3.c.e.d (3.c.e.c (3.d.=f.d | x8 | (3.g!p!.e.f (3.g.e.f (3.g.e.f (3.g.f.e | x8 | %198
 (3z!p! f"_cresc."e (3^dfe (3dfd (3^e^ge | x8 | x8 | x8 | x8 | z2 [Cc]4 x2 | x8 | x8 | x8 | %207
 z2 [Cc]4 x2 | x8 | x8 | x8 | x8 | x8 | x8 | x8 | x8 | x8 | (3x"_cresc."xx (3xxx (3xxx (3xxx | x8 | %219
 x8 | x8 | x8 | x8 | x8 | x8 | x8 | e6 ^e2 | f x x6 | x6 f2 | a2 g4 x2 | x8 | z BGB GEGE | x8 | %233
 x8 | x8 | x8 | x8 | x8 | x8 | x8 | x8 | x8 | x8 | %243
!8va(! [dd'][cc'][dad'][ec'e'] [=fd'=f'][^fd'^f'][gd'g'][^gd'^g'] | x3!8va)! x5 | x8 | x8 | x8 | %248
 x8 | x8 | x8 | x8 | x8 | x8 | x8 | x8 | x8 | %257
!8va(! d'/c'/d'/c'/d'/c'/d'/c'/d'/c'/d'/c'/ d'/c'/d'/c'/ | %258
 d'/c'/d'/c'/ d'/c'/d'/c'/ d'/c'/d'/c'/ d'/c'/d'/c'/ | d'/c'/d'/c'/d'/c'/d'/c'/ d'!8va)! x x2 | %260
 x8 | x8 | x8 | x8 | x8 | A !>!A2 A2 x x2 | z!ff! !>!A2 A2 x x2 | x8 | x8 | x8 | x8 | x8 | x8 | %273
 x8 | x8 | x8 | x8 | x8 | x8 | x8 | x8 | x8 | x8 | x8 | x8 | x4!8va(! x4 | x4 [ea]2 x2 | %287
 d6!8va)! x2 | x8 | z!mf! [G_B][GB][GB] [GB][GB] GG | DD [_B,D][B,D] [A,D][A,D] [G,D][G,D] | %291
 D2 x4 x2 | x8 | z!mf! [G_B][GB][GB] [GB][GB] GG | DD [_B,D][B,D] [A,D][A,D] [G,D][G,D] | %295
 DDDD DDD!p!D | DDDD DDD!p!D | DDDD DDD!p!D | DDDD DDD!p!D | DDD!p!D DDD!p!D | DDD!p!D DDD!p!D | %301
 x8 | x8 | x8 | x8 | x8 | x4 .[A,=CFA]2 z2 | x8 | x8 | x8 | x8 | x8 | x8 | x6 E2 | %314
 D2!f! =C2 B,2 F2 | G2 x2 x2 F2 | E2!f! D2 C2 ^E2 | F2 x2 x4 | x8 | x8 | x8 | x8 | x8 | x8 | x8 | %325
 x8 | x8 | x8 | x8 | x8 | x8 | x8 | x8 | x8 | x8 | x8 | x8 | x8 | x8 | x8 | x8 | x8 | x8 | x8 | %344
 x8 | x8 | x8 | x8 | x8 | x8 | x8 | x8 | x8 | x8 | x8 | x8 | x8 | x8 | x8 | x8 | x8 | x8 | x8 | %363
 x8 |] %364
V:4
 x/4 | x6 | x6 | x6 | x2 x2 x x/ x/4 [D,D]/4 | [D,D]3 x x2 | x6 | x6 | %8
 x z z .[D,,D,] .[C,,C,].[B,,,B,,] | [^A,,,^A,,]2 x4 | [B,,,B,,]2 x4 | [^C,,^C,]2 x4 | x6 | x6 | %14
 x6 | x6 | x6 | G,,,2 x4[K:treble] | %18
[K:bass] [=C,,-=C,]!mp!C,,/4D,,/8E,,/8=F,,/8G,,/8A,,/8=B,,/8 C, x x2 | %19
 !>!=F,,,2 =F,/- F,/[K:treble] x x2 |[K:bass] !>!^F,,,2 F,/- F,/[K:treble] x x2 | %21
[K:bass] [G,,,G,,-]!mp!G,,/4A,,/8_B,,/8=C,/8D,/8E,/8F,/8 G,/ x/ x x2 | %22
 [A,,,-A,,]A,,,/4B,,,/8C,,/8D,,/8E,,/8=F,,/8G,,/8 A,, x x2 | x6 | x6 | A,,6 | A,,2 A,,A,,A,,A,, | %27
 A,,6 | A,,6 | x4[K:treble] (3z/!p! [A,=F^G]/[A,FG]/(3[A,FG]/[A,FG]/[A,FG]/ | %30
[K:bass] x4[K:treble] (3z/!p! [A,EG]/[A,EG]/(3[A,EG]/[A,EG]/[A,EG]/ | %31
[K:bass] x4[K:treble] (3z/!p! [A,D=F]/[A,DF]/(3[A,DF]/[A,DF]/[A,DF]/ | %32
[K:bass] x4[K:treble] (3z/!p! [A,DE]/[A,DE]/(3[A,DE]/[A,DE]/[A,DE]/ |[K:bass] x6 || %34
[M:4/4] D,,2 x2 x4 |: x8 | x8 | D,2 x2 x4 | x8 | x8 | x8 | ^G,,2 x2 x4 | x8 | A,,2 x2 x4 | %44
 B,,2 x2 A,,2 x2 | G,,2 x2 !>!F,,2 x2 | G,,2 x2 A,,2 x2 | [D,,D,]4 x2 D,/C,/D,/E,/ | %48
 [F,,F,]6 F,/E,/F,/G,/ | x8 | x8 | x8 | x8 | x8 | x8 | x8 | x8 | [D,,D,]4 x4 | x8 | %59
 [_B,,,_B,,]4 x4 | x8 | x8 | x8 | B,,E,,B,,E,, =D,E,,[D,E,]E,, | x8 | x8 | x8 | x8 | x8 | %69
 z6 z !>![=F,,=F,] | [E,,E,][=F,,=F,][E,,E,][F,,F,] [E,,E,][F,,F,][E,,E,][F,,F,] | %71
 [E,,E,]6 .[^D,,^D,]2 | x8 | x8 | A,A,A,A, A,A,A,A, | x8 | x8 | x8 | x8 | x8 | x8 | %81
 x4[K:treble] x4 | x8 | x8 | x8 |[K:bass] x8 | x8 | x8 | x8 | x8 | %90
 [C,C]4- [C,C][C,C][B,,B,][^A,,^A,] | [B,,B,]4- [B,,B,][B,,B,][A,,A,][^G,,^G,] | x8 | x8 | x8 | %95
 x8 | x8 | x8 | x8 | x8 | x8 | x8 | x8 | .D,,2 x2 x2 x2 | .E,,2 x2 x2 x2 | .=F,,2 x2 .G,,2 x2 | %106
 .A,,2 x2 z2 x2 | x8 | x8 | x8 | x8 | x8 | A,,2 x2 x4 | x8 | [D,D]4 z2 .[D,D]2 | %115
 .[A,,A,]2 .[=F,,=F,]2 .[E,,E,]2 .[D,,D,]2 | A,,2 x2 x4 | x8 | [D,D]4 z2 .[D,D]2 | %119
 .[A,,A,]2 .[=F,,=F,]2 .[E,,E,]2 .[D,,D,]2 | x8 | x8 | x8 | x8 | x8 | x8 | x4 !^![A,A]4 | %127
 [E,E]4 [C,C]4 | [A,,A,]4 x4 | x8 | x8 | x8 |1 x8 | x8 | D,,2 x2 x4 :|2 x8 | x8 || x8 | x8 | x8 | %140
 x8 | x8 | x8 | x8 | [D,,D,]2 x2 x4 | x8 | [D,,D,]2 x2 x4 | x8 | [D,,D,]2 x2 x4 | %149
 x4 x2!ff! !>!G,,/!>!F,,/!>!G,,/!>!A,,/ | _B,,2 x2 x4 | _E,=F,.G,.F, .E,.F,[D,D][E,_E] | x8 | %153
 [^F,,=F,]4 z2!ff! !>!F,,/!>!E,,/!>!F,,/!>!G,,/ | x8 | D,_E,.=F,.E, .D,.E,[=C,=C][D,D] | x8 | x8 | %158
 !^!A,,8 | x8 | x8 | x2[K:treble] x4[K:bass] x2 | x8 | [B,,E,G,]4[K:treble] x4[K:bass] | x8 | %165
 [_B,,C,E,G,]4[K:treble] x4[K:bass] | [A,,C,E,G,]4[K:treble] x4[K:bass] | [A,,D,=F,]4 x4 | %168
 [_A,,D,=F,]4 x4 | x8 | x8 | x8 | x6 (3!>!A,!>!B,!>!=C | x8 | .A,,2 x2 .=C,2 x2 | x8 | %176
 .F,,2 x2 .D,,2 x2 | x8 | .A,,2 x2 .=C,2 x2 | x8 | .F,,2 x2 .D,,2 x2 | z2[K:treble] D6- | D8 | x8 | %184
 x8 |[K:bass] x8 | x8 | x8 | x8 | x8 | .G,2 .G,2 .G,2 .F,2 | x8 | G,2 G,2 G,2 ^G,2 | x8 | %194
 A,2 A,2 A,2 A,2 | x8 | A,2 A,2 A,2 ^A,2 | x8 |[K:treble] B,2 B,2 B,2 B,2 | x4/3[K:bass] x20/3 | %200
 x8 | x8 | x8 | x8 | x8 | x8 | x8 | x8 | x8 | .[C,C] x x2 x4 | .[F,,F,] x x2 x4 | %211
 .[C,,C,] x x2 x4 | .[F,,F,] x x2 x4 | [C,,C,] x x2 x4 | x4 C,2 ^G,,^E,, | x8 | x8 | %217
 (3xxx (3xxx (3xxx (3xxx | !arpeggio!A,,8 | D,,2 x2 x4 | x8 | x8 | D,2 x2 x4 | x8 | x8 | x8 | x8 | %227
 x8 | A,,2 x2 z4 | B,,2 x2 A,,2 x2 | G,,2 x2 F,,2 x2 | G,,2 x2 A,,2 x2 | !arpeggio!D,,2 D,4 =C,2 | %233
 B,,2 x2 A,,2 x2 | G,,2 x2 !>!F,,2 x2 | !>!G,,2 x2 !>!^G,,2 x2 | x8 | x8 | x8 | x8 | x8 | x8 | x8 | %243
 x8 | x8 | x8 | x2 [A,,,A,,]4 .[^G,,,^G,,]2 | .[=G,,,=G,,]2 .[F,,,F,,]2 .[E,,,E,,]2 .[A,,,A,,]2 | %248
 D,,D,D,D, D,,D,F,A, | x8 | x8 | x8 | x8 | x8 | x8 | x2[K:treble] x6 | x8 | D2 x2 x4 | x8 | x8 | %260
[K:bass] x8 | x8 | x8 | x8 | x8 | !>![F,,F,]4- [F,,F,][F,,F,][E,,E,][^D,,^D,] | %266
 [E,,E,]4- [E,,E,][E,,E,][D,,D,][C,,C,] | x8 | x8 | x8 | x8 | x7/2[K:treble] x9/2 | %272
[K:bass] x7/2[K:treble] x9/2 |[K:bass] x2[K:treble] x2[K:bass] x2[K:treble] x2 | %274
[K:bass] x2[K:treble] x2[K:bass] x2[K:treble] x2 |[K:bass] x7/2[K:treble] x9/2 | %276
[K:bass] x7/2[K:treble] x9/2 |[K:bass] x8 | .G,,2 x2 x2 x2 | .A,,2 x2 x2 x2 | x8 | x8 | x8 | x8 | %284
 x8 | x8 | x8 | x8 | x8 | [G,,_B,,D,G,]4 x2 [G,,G,]2 | %290
 [D,,D,]2 [_B,,,_B,,]2 [A,,,A,,]2 [G,,,G,,]2 | x8 | x8 | [G,,_B,,D,G,]4 x2 [G,,G,]2 | %294
 [D,,D,]2 [_B,,,_B,,]2 [A,,,A,,]2 [G,,,G,,]2 | x8 | x8 | x8 | x8 | x8 | x8 | x4 !^![D,D]4 | %302
 !^![A,,A,]4 !^![F,,F,]4 | D,,2 x2 x4 | x8 | x8 | x8 | x8 | x8 | x8 | x8 | x8 | %312
 x4 x2 x (3A,,/B,,/C,/ | x8 | x8 | x8 | x8 | x8 | x8 | x8 | x8 | x8 | x8 | x8 | x8 | [D,,D,]8 | %326
 x8 | x8 | x8 | [D,,D,]8[K:treble] |[K:bass] [^D,,^D,]8[K:treble] | %331
[K:bass] [E,,E,]4[K:treble][K:bass] !>![=F,,=F,]4[K:treble] |[K:bass] !>![^F,,^F,]8[K:treble] | %333
[K:bass] [G,,G,]4[K:treble][K:bass] [_A,,_A,]4[K:treble] |[K:bass] [=A,,=A,]8[K:treble] | %335
[K:bass] [_B,,_B,]4[K:treble][K:bass] [=B,,=B,]4[K:treble] |[K:bass] [=C,=C]8[K:treble] | %337
[K:bass] [^C,^C]4[K:treble][K:bass] [D,D]4[K:treble] | %338
[K:bass] x2[K:treble] x2[K:bass] x2[K:treble] x2 | %339
[K:bass] x2[K:treble] x2[K:bass] x2[K:treble] x2 | %340
[K:bass] x2[K:treble] x2[K:bass] x2[K:treble] x2 |[K:bass] x8 | x8 | x8 | x8 | x8 | x8 | x8 | x8 | %349
 x8 | x8 | x8 | x8 | x8 | x8 | x8 | x8 | x8 | x8 | x8 | x8 | x8 | x8 | x8 |] %364
V:5
 x/4 | x6 | x6 | x6 | x6 | x6 | x6 | x6 | x6 | x6 | x6 | x6 | x6 | x6 | x6 | x6 | x6 | %17
 x3[K:treble] x3 |[K:bass] x6 | x3[K:treble] x3 |[K:bass] x3[K:treble] x3 |[K:bass] x6 | x6 | x6 | %24
 x6 | x6 | x6 | x6 | x6 | x7/4[K:treble] x17/4 |[K:bass] x7/4[K:treble] x17/4 | %31
[K:bass] x7/4[K:treble] x17/4 |[K:bass] x7/4[K:treble] x17/4 |[K:bass] x6 || %34
[M:4/4] D,6!mp! D,/C,/D,/E,/ |: x8 | x8 | x8 | x8 | x8 | x8 | x8 | x8 | x8 | x8 | x8 | x8 | x8 | %48
 x8 | x8 | x8 | x8 | x8 | x8 | x8 | x8 | x8 | x8 | x8 | x8 | x8 | x8 | x8 | x8 | x8 | x8 | x8 | %67
 x8 | x8 | x8 | x8 | x8 | x8 | x8 | x8 | x8 | x8 | x8 | x8 | x8 | x8 | x4[K:treble] x4 | x8 | x8 | %84
 x8 |[K:bass] x8 | x8 | x8 | x8 | x8 | x8 | x8 | x8 | x8 | x8 | x8 | x8 | x8 | x8 | x8 | x8 | x8 | %102
 x8 | x8 | x8 | x8 | x8 | x8 | x8 | x8 | x8 | x8 | x8 | x8 | x8 | x8 | x8 | x8 | x8 | x8 | x8 | %121
 x8 | x8 | x8 | x8 | x8 | !arpeggio![A,,,A,,]8 | x8 | x8 | x8 | x8 | x8 |1 x8 | x8 | x8 :|2 x8 | %136
 x8 || x8 | x8 | x8 | x8 | x8 | x8 | x8 | x8 | x8 | x8 | x8 | x8 | x8 | x8 | x8 | x8 | x8 | x8 | %155
 x8 | x8 | x8 | x8 | x8 | x8 | x2[K:treble] x4[K:bass] x2 | x8 | x2[K:treble] x4[K:bass] x2 | x8 | %165
 x2[K:treble] x4[K:bass] x2 | x2[K:treble] x4[K:bass] x2 | x8 | x8 | x8 | x8 | x8 | x8 | x8 | x8 | %175
 x8 | x8 | x8 | x8 | x8 | x8 | x2[K:treble] x6 | x8 | x8 | x8 |[K:bass] x8 | x8 | x8 | x8 | x8 | %190
 x8 | x8 | x8 | x8 | x8 | x8 | x8 | x8 |[K:treble] x8 | x4/3[K:bass] x20/3 | x8 | x8 | x8 | x8 | %204
 x8 | x8 | x8 | x8 | x8 | x8 | x8 | x8 | x8 | x8 | x8 | x8 | x8 | x8 | x8 | x8 | x8 | x8 | x8 | %223
 x8 | x8 | x8 | x8 | x8 | x8 | x8 | x8 | x8 | x8 | x8 | x8 | x8 | x8 | x8 | x8 | x8 | x8 | x8 | %242
 x8 | x8 | x8 | x8 | x8 | x8 | x8 | x8 | x8 | x8 | x8 | x8 | x8 | x2[K:treble] x6 | x8 | x8 | x8 | %259
 x8 |[K:bass] x8 | x8 | x8 | x8 | x8 | x8 | x8 | x8 | x8 | x8 | x8 | x7/2[K:treble] x9/2 | %272
[K:bass] x7/2[K:treble] x9/2 |[K:bass] x2[K:treble] x2[K:bass] x2[K:treble] x2 | %274
[K:bass] x2[K:treble] x2[K:bass] x2[K:treble] x2 |[K:bass] x7/2[K:treble] x9/2 | %276
[K:bass] x7/2[K:treble] x9/2 |[K:bass] x8 | x8 | x8 | x8 | x8 | x8 | x8 | x8 | x8 | x8 | x8 | x8 | %289
 x8 | x8 | x8 | x8 | x8 | x8 | x8 | x8 | x8 | x8 | x8 | x8 | [D,,D,]8 | x8 | x8 | x8 | x8 | x8 | %307
 x8 | x8 | x8 | x8 | x8 | x8 | x8 | x8 | x8 | x8 | x8 | x8 | x8 | x8 | x8 | x8 | x8 | x8 | x8 | %326
 x8 | x8 | x8 | x4[K:treble] x4 |[K:bass] x4[K:treble] x4 | %331
[K:bass] x2[K:treble] x2[K:bass] x2[K:treble] x2 |[K:bass] x4[K:treble] x4 | %333
[K:bass] x2[K:treble] x2[K:bass] x2[K:treble] x2 |[K:bass] x4[K:treble] x4 | %335
[K:bass] x2[K:treble] x2[K:bass] x2[K:treble] x2 |[K:bass] x4[K:treble] x4 | %337
[K:bass] x2[K:treble] x2[K:bass] x2[K:treble] x2 | %338
[K:bass] x2[K:treble] x2[K:bass] x2[K:treble] x2 | %339
[K:bass] x2[K:treble] x2[K:bass] x2[K:treble] x2 | %340
[K:bass] x2[K:treble] x2[K:bass] x2[K:treble] x2 |[K:bass] x8 | x8 | x8 | x8 | x8 | x8 | x8 | x8 | %349
 x8 | x8 | x8 | x8 | x8 | x8 | x8 | x8 | x8 | x8 | x8 | x8 | x8 | x8 | x8 |] %364
V:6
 x/4 | x6 | x6 | x6 | x6 | x6 | x6 | x6 | x6 | x6 | x6 | x6 | x6 |!8va(! x6 | x!8va)! x5 | %15
!8va(! x4!8va)! x2 | x6 | x6 | x6 | x6 | x6 | x6 | x6 | x6 | x6 | x6 | x6 | x6 | x6 | x6 | x6 | %31
 x6 | x6 | x6 ||[M:4/4] x8 |: x8 | x8 | x8 | x8 | x8 | x8 | x8 | x8 | x8 | x8 | x8 | x8 | x8 | x8 | %49
 x8 | x8 | x8 | x8 | x8 | x8 | x8 | x8 | x8 | x8 | x8 | x8 | x8 | x8 | x8 | x8 | x8 | x8 | x8 | %68
 x8 | x8 | x8 | x8 | x8 | x8 | x8 | x8 | x8 | x8 | x8 | x8 | x8 | x8 | x8 | x8 | x8 | x8 | x8 | %87
 x8 | x8 | x8 |!8va(! x8 | x8!8va)! | x8 | x8 | x8 | x8 | x8 | x8 | x8 | x8 | x8 | x8 | x8 | x8 | %104
 x8 | x8 | x8 | x8 | x8 | x8 | x8 | x8 | x8 | x8 | x8 | x8 | x8 | x8 | x8 | x8 | A6 x2 | A6 x2 | %122
 A6 x2 | A6 x2 | x8 | x8 | x8 | x8 | x8 | x8 | x8 | x8 |1 x8 | x4 E4 | x8 :|2 x8 | x8 || x8 | x8 | %139
 x8 | x4 E4 | x8 | x8 | x8 | x8 | x8 | x8 | x8 | x8 | x8 | x8 | x8 | x8 | x8 | x8 | x8 | x8 | x8 | %158
 x8 | x8 | x8 | x2!8va(! x4!8va)! x2 | x8 | x2!8va(! x4!8va)! x2 | x8 | x2!8va(! x4!8va)! x2 | %166
 x2!8va(! x4!8va)! x2 | x2!8va(! x4!8va)! x2 | x2!8va(! x4!8va)! x2 | x8 | x8 | x8 | x8 | x8 | x8 | %175
 x8 | x8 | x8 | x8 | x8 | x8 | x8 | x8 | x8 | x8 | x8 | x8 | x8 | x8 | x8 | x8 | x8 | x8 | x8 | %194
 x8 | x8 | x8 | x8 | x8 | x8 | x8 | x8 | x8 | x8 | x8 | x8 | x8 | x8 | x8 | x8 | x8 | x8 | x8 | %213
 x8 | x8 | x8 | x8 | x8 | x8 | x8 | x8 | x8 | x8 | x8 | x8 | x8 | x8 | x8 | x8 | x8 | x8 | x8 | %232
 x8 | x8 | x8 | x8 | x8 | x8 | x8 | x8 | x8 | x8 | x8 |!8va(! x8 | x3!8va)! x5 | x8 | x8 | x8 | %248
 x8 | x8 | x8 | x8 | x8 | x8 | x8 | x8 | x8 |!8va(! x8 | x8 | x5!8va)! x3 | x8 | x8 | x8 | x8 | %264
 x8 | x8 | x8 | x8 | x8 | x8 | x8 | x8 | x8 | x8 | x8 | x8 | x8 | x8 | x8 | x8 | x8 | x8 | x8 | %283
 x8 | x8 | x4!8va(! x4 | x8 | x2!8va)! x6 | x8 | x8 | x8 | x8 | x8 | x8 | x8 | %295
 [FA]2 [DG]2 [FA]2 x2 | [FA]2 [DG]2 [FA]2 x2 | [FA]2 [DG]2 [FA]2 x2 | [FA]2 [DG]2 [FA]2 x2 | x8 | %300
 x8 | x8 | x8 | x8 | x8 | x8 | x8 | x8 | x8 | x8 | x8 | x8 | x8 | x8 | x8 | x8 | x8 | x8 | x8 | %319
 x8 | x8 | x8 | x8 | x8 | x8 | x8 | x8 | x8 | x8 | x8 | x8 | x8 | x8 | x8 | x8 | x8 | x8 | x8 | %338
 x8 | x8 | x8 | x8 | x8 | x8 | x8 | x8 | x8 | x8 | x8 | x8 | x8 | x8 | x8 | x8 | x8 | x8 | x8 | %357
 x8 | x8 | x8 | x8 | x8 | x8 | x8 |] %364

